; generated by Slic3r 0.9.9-dev on 2013-04-24 at 14:34:49

; M-PLA-05-03-1

; layer_height = 0.3
; perimeters = 2
; top_solid_layers = 3
; bottom_solid_layers = 2
; fill_density = 0.2
; perimeter_speed = 32
; infill_speed = 50
; travel_speed = 250
; scale = 1
; nozzle_diameter = 0.5
; filament_diameter = 1.75
; extrusion_multiplier = 0.9
; perimeters extrusion width = 0.50mm
; infill extrusion width = 0.50mm
; first layer extrusion width = 0.50mm

M107
M190 S57 ; wait for bed temperature to be reached
M104 S200 ; set temperature
G28 X0 Y0
G1 X75 Y75 F12000
G28 Z0
G1 Z0.3 F200
G1 X15 Y20 F12000
M109 S200 ; wait for temperature to be reached
G90 ; use absolute coordinates
G21 ; set units to millimeters
G92 E0
M82 ; use absolute distances for extrusion
G1 F2760.000 E-3.20000
G92 E0
G1 Z0.300 F15000.000
G1 X84.460 Y73.310
G1 X84.590 Y73.160 F2760.000 E3.20000
G1 X84.590 Y73.160 F1920.000
G1 X85.020 Y72.750 E3.23335
G1 X85.340 Y72.530 E3.25514
G1 X85.680 Y72.340 E3.27700
G1 X86.040 Y72.190 E3.29889
G1 X86.420 Y72.080 E3.32110
G1 X86.810 Y72.010 E3.34334
G1 X87.200 Y71.990 E3.36525
G1 X132.750 Y71.990 E5.92181
G1 X133.140 Y72.010 E5.94373
G1 X133.530 Y72.080 E5.96597
G1 X133.910 Y72.190 E5.98818
G1 X134.270 Y72.340 E6.01006
G1 X134.610 Y72.530 E6.03193
G1 X134.930 Y72.750 E6.05372
G1 X135.360 Y73.160 E6.08707
G1 X135.600 Y73.460 E6.10863
G1 X135.900 Y73.970 E6.14184
G1 X136.050 Y74.330 E6.16373
G1 X136.200 Y74.900 E6.19681
G1 X136.230 Y75.100 E6.20816
G1 X136.250 Y75.490 E6.23008
G1 X136.250 Y87.710 E6.91595
G1 X136.220 Y88.160 E6.94126
G1 X136.070 Y88.820 E6.97925
G1 X120.990 Y125.820 E9.22178
G1 X120.820 Y126.180 E9.24413
G1 X120.500 Y126.670 E9.27698
G1 X120.090 Y127.100 E9.31032
G1 X119.620 Y127.460 E9.34355
G1 X119.280 Y127.650 E9.36541
G1 X118.720 Y127.860 E9.39898
G1 X118.140 Y127.980 E9.43222
G1 X117.750 Y128.000 E9.45414
G1 X95.150 Y128.000 E10.72260
G1 X94.760 Y127.980 E10.74452
G1 X94.370 Y127.910 E10.76676
G1 X93.810 Y127.730 E10.79977
G1 X93.460 Y127.560 E10.82161
G1 X93.130 Y127.360 E10.84327
G1 X92.680 Y126.980 E10.87632
G1 X92.540 Y126.840 E10.88744
G1 X92.190 Y126.370 E10.92033
G1 X92.000 Y126.020 E10.94268
G1 X91.850 Y125.660 E10.96457
G1 X89.910 Y120.150 E11.29243
G1 X89.820 Y119.790 E11.31326
G1 X83.750 Y83.070 E13.40220
G1 X83.700 Y82.500 E13.43431
G1 X83.700 Y75.490 E13.82776
G1 X83.720 Y75.100 E13.84967
G1 X83.790 Y74.710 E13.87191
G1 X83.970 Y74.150 E13.90493
G1 X84.140 Y73.800 E13.92677
G1 X84.416 Y73.370 E13.95541
G1 X84.460 Y73.310 E13.95962
G1 F2760.000 E10.75962
G92 E0
G1 X126.010 Y79.644 F15000.000
G1 X126.435 Y79.219 F2760.000 E3.20000
G1 X127.447 Y78.207 F780.000 E3.28034
G1 X129.553 Y78.207 E3.39857
G1 X131.043 Y79.697 E3.51680
G1 X131.043 Y81.803 E3.63503
G1 X129.553 Y83.293 E3.75326
G1 X127.447 Y83.293 E3.87149
G1 X125.957 Y81.803 E3.98971
G1 X125.957 Y80.147 E4.08269
G1 X126.010 Y79.644
G1 X126.510 Y79.851 F15000.000
G1 X127.654 Y78.707 F780.000 E4.17346
G1 X129.346 Y78.707 E4.26844
G1 X130.543 Y79.904 E4.36342
G1 X130.543 Y81.596 E4.45840
G1 X129.346 Y82.793 E4.55338
G1 X127.654 Y82.793 E4.64837
G1 X126.457 Y81.596 E4.74334
G1 X126.457 Y79.979 E4.83412
G1 X126.510 Y79.851 E4.84190
G1 X125.957 Y80.147 F2760.000 E1.64190
G92 E0
G1 X100.043 Y79.772 F15000.000
G1 X100.043 Y80.372 F2760.000 E3.20000
G1 X100.043 Y81.803 F780.000 E3.28035
G1 X98.553 Y83.293 E3.39857
G1 X96.447 Y83.293 E3.51681
G1 X94.957 Y81.803 E3.63503
G1 X94.957 Y79.697 E3.75326
G1 X96.447 Y78.207 E3.87149
G1 X98.553 Y78.207 E3.98972
G1 X99.725 Y79.379 E4.08269
G1 X100.043 Y79.772
G1 X99.543 Y79.979 F15000.000
G1 X99.543 Y81.596 F780.000 E4.17347
G1 X98.346 Y82.793 E4.26844
G1 X96.654 Y82.793 E4.36343
G1 X95.457 Y81.596 E4.45840
G1 X95.457 Y79.904 E4.55339
G1 X96.654 Y78.707 E4.64837
G1 X98.346 Y78.707 E4.74335
G1 X99.490 Y79.851 E4.83412
G1 X99.543 Y79.979 E4.84190
G1 X99.725 Y79.379 F2760.000 E1.64190
G92 E0
G1 X102.297 Y107.891 F15000.000
G1 X102.750 Y107.868 F2760.000 E3.20000
G1 X102.750 Y107.868 F1560.000
G1 X103.278 Y107.894 E3.22964
G1 X103.800 Y107.972 E3.25928
G1 X104.312 Y108.100 E3.28893
G1 X104.810 Y108.278 E3.31857
G1 X105.287 Y108.504 E3.34821
G1 X105.740 Y108.775 E3.37785
G1 X106.164 Y109.090 E3.40749
G1 X106.556 Y109.445 E3.43714
G1 X106.910 Y109.836 E3.46678
G1 X107.225 Y110.260 E3.49642
G1 X107.496 Y110.713 E3.52607
G1 X107.722 Y111.191 E3.55571
G1 X107.900 Y111.688 E3.58535
G1 X108.028 Y112.200 E3.61499
G1 X108.106 Y112.722 E3.64463
G1 X108.132 Y113.250 E3.67428
G1 X108.106 Y113.778 E3.70392
G1 X108.028 Y114.300 E3.73356
G1 X107.900 Y114.812 E3.76320
G1 X107.722 Y115.309 E3.79285
G1 X107.496 Y115.787 E3.82249
G1 X107.225 Y116.240 E3.85213
G1 X106.910 Y116.664 E3.88178
G1 X106.556 Y117.055 E3.91141
G1 X106.164 Y117.410 E3.94106
G1 X105.740 Y117.725 E3.97070
G1 X105.287 Y117.996 E4.00034
G1 X104.810 Y118.222 E4.02999
G1 X104.312 Y118.400 E4.05963
G1 X103.800 Y118.528 E4.08927
G1 X103.278 Y118.606 E4.11891
G1 X102.750 Y118.632 E4.14856
G1 X102.223 Y118.606 E4.17820
G1 X101.700 Y118.528 E4.20784
G1 X101.188 Y118.400 E4.23748
G1 X100.691 Y118.222 E4.26712
G1 X100.213 Y117.996 E4.29677
G1 X99.760 Y117.725 E4.32641
G1 X99.336 Y117.410 E4.35605
G1 X98.945 Y117.055 E4.38570
G1 X98.590 Y116.664 E4.41534
G1 X98.275 Y116.240 E4.44498
G1 X98.004 Y115.787 E4.47462
G1 X97.778 Y115.309 E4.50426
G1 X97.600 Y114.812 E4.53391
G1 X97.472 Y114.300 E4.56355
G1 X97.394 Y113.778 E4.59319
G1 X97.368 Y113.250 E4.62283
G1 X97.394 Y112.722 E4.65248
G1 X97.472 Y112.200 E4.68212
G1 X97.600 Y111.688 E4.71176
G1 X97.778 Y111.191 E4.74140
G1 X98.004 Y110.713 E4.77105
G1 X98.275 Y110.260 E4.80069
G1 X98.590 Y109.836 E4.83033
G1 X98.945 Y109.445 E4.85997
G1 X99.336 Y109.090 E4.88961
G1 X99.760 Y108.775 E4.91925
G1 X100.213 Y108.504 E4.94890
G1 X100.691 Y108.278 E4.97854
G1 X101.188 Y108.100 E5.00819
G1 X101.700 Y107.972 E5.03782
G1 X102.148 Y107.905 E5.06326
G1 X102.297 Y107.891 E5.07167
G1 X102.160 Y107.403 F15000.000
G1 X101.602 Y107.481 F960.000 E5.10328
G1 X101.043 Y107.621 E5.13567
G1 X100.499 Y107.815 E5.16807
G1 X99.977 Y108.062 E5.20048
G1 X99.482 Y108.359 E5.23288
G1 X99.018 Y108.703 E5.26528
G1 X98.591 Y109.091 E5.29768
G1 X98.203 Y109.518 E5.33008
G1 X97.859 Y109.982 E5.36247
G1 X97.562 Y110.477 E5.39487
G1 X97.316 Y110.999 E5.42727
G1 X97.121 Y111.542 E5.45967
G1 X96.996 Y112.043 E5.48864
G1 X96.896 Y112.673 E5.52446
G1 X96.868 Y113.250 E5.55686
G1 X96.905 Y113.887 E5.59268
G1 X96.981 Y114.398 E5.62164
G1 X97.121 Y114.958 E5.65404
G1 X97.316 Y115.501 E5.68644
G1 X97.562 Y116.023 E5.71884
G1 X97.859 Y116.518 E5.75124
G1 X98.203 Y116.982 E5.78364
G1 X98.591 Y117.409 E5.81604
G1 X99.018 Y117.797 E5.84843
G1 X99.482 Y118.141 E5.88084
G1 X99.977 Y118.438 E5.91324
G1 X100.499 Y118.685 E5.94564
G1 X101.043 Y118.879 E5.97804
G1 X101.602 Y119.019 E6.01044
G1 X102.173 Y119.104 E6.04284
G1 X102.750 Y119.132 E6.07524
G1 X103.327 Y119.104 E6.10764
G1 X103.898 Y119.019 E6.14004
G1 X104.458 Y118.879 E6.17243
G1 X105.001 Y118.685 E6.20484
G1 X105.523 Y118.438 E6.23724
G1 X106.018 Y118.141 E6.26964
G1 X106.482 Y117.797 E6.30204
G1 X106.910 Y117.409 E6.33444
G1 X107.297 Y116.982 E6.36683
G1 X107.641 Y116.518 E6.39923
G1 X107.938 Y116.023 E6.43164
G1 X108.185 Y115.501 E6.46404
G1 X108.265 Y115.277 E6.47741
G1 X108.299 Y115.277 E6.47933
G1 X108.444 Y114.699 E6.51273
G1 X108.775 Y114.740 E6.53147
G1 X108.775 Y124.000 E7.05118
G1 X95.650 Y124.000 E7.78784
G1 X95.650 Y118.600 E8.09092
G1 X93.750 Y118.600 E8.19756
G1 X93.750 Y104.500 E8.98894
G1 X93.665 Y104.500 E8.99372
G1 X93.651 Y104.216 E9.00967
G1 X93.352 Y102.202 E9.12397
G1 X92.857 Y100.226 E9.23827
G1 X92.171 Y98.309 E9.35256
G1 X91.750 Y97.418 E9.40787
G1 X91.750 Y82.000 E10.27324
G1 X87.701 Y82.000 E10.50052
G1 X87.701 Y76.000 E10.83728
G1 X132.250 Y76.000 E13.33769
G1 X132.250 Y87.324 E13.97327
G1 X131.976 Y87.393 E13.98911
G1 X130.059 Y88.079 E14.10340
G1 X128.218 Y88.949 E14.21769
G1 X126.472 Y89.996 E14.33199
G1 X124.882 Y91.175 E14.44304
G1 X123.327 Y92.577 E14.56057
G1 X121.959 Y94.086 E14.67486
G1 X120.723 Y95.760 E14.79168
G1 X119.699 Y97.468 E14.90344
G1 X118.829 Y99.309 E15.01774
G1 X118.143 Y101.226 E15.13203
G1 X117.648 Y103.202 E15.24633
G1 X117.349 Y105.216 E15.36062
G1 X117.335 Y105.500 E15.37658
G1 X117.250 Y105.500 E15.38135
G1 X117.250 Y124.000 E16.41969
G1 X111.275 Y124.000 E16.75505
G1 X111.275 Y114.919 E17.26473
G1 X112.006 Y115.650 E17.32274
G1 X113.994 Y115.650 E17.43433
G1 X115.400 Y114.244 E17.54592
G1 X115.400 Y112.256 E17.65752
G1 X113.994 Y110.850 E17.76911
G1 X112.006 Y110.850 E17.88070
G1 X111.275 Y111.581 E17.93872
G1 X111.275 Y100.142 E18.58073
G1 X111.766 Y100.318 E18.61000
G1 X112.171 Y100.419 E18.63341
G1 X112.583 Y100.480 E18.65683
G1 X113.000 Y100.501 E18.68024
G1 X113.417 Y100.480 E18.70365
G1 X113.829 Y100.419 E18.72707
G1 X114.234 Y100.318 E18.75048
G1 X114.627 Y100.177 E18.77390
G1 X115.004 Y99.999 E18.79731
G1 X115.362 Y99.785 E18.82072
G1 X115.697 Y99.536 E18.84414
G1 X116.006 Y99.256 E18.86755
G1 X116.286 Y98.947 E18.89097
G1 X116.535 Y98.612 E18.91438
G1 X116.749 Y98.254 E18.93779
G1 X116.927 Y97.877 E18.96121
G1 X117.068 Y97.484 E18.98462
G1 X117.169 Y97.079 E19.00804
G1 X117.230 Y96.667 E19.03145
G1 X117.251 Y96.250 E19.05486
G1 X117.230 Y95.833 E19.07828
G1 X117.169 Y95.421 E19.10169
G1 X117.068 Y95.016 E19.12511
G1 X116.927 Y94.623 E19.14852
G1 X116.749 Y94.246 E19.17193
G1 X116.535 Y93.888 E19.19535
G1 X116.286 Y93.553 E19.21876
G1 X116.006 Y93.244 E19.24218
G1 X115.697 Y92.964 E19.26559
G1 X115.362 Y92.715 E19.28900
G1 X115.004 Y92.501 E19.31242
G1 X114.627 Y92.323 E19.33583
G1 X114.234 Y92.182 E19.35925
G1 X113.829 Y92.081 E19.38266
G1 X113.417 Y92.020 E19.40607
G1 X113.000 Y91.999 E19.42949
G1 X112.583 Y92.020 E19.45290
G1 X112.171 Y92.081 E19.47631
G1 X111.766 Y92.182 E19.49973
G1 X111.373 Y92.323 E19.52314
G1 X110.996 Y92.501 E19.54656
G1 X110.638 Y92.715 E19.56997
G1 X110.303 Y92.964 E19.59338
G1 X109.994 Y93.244 E19.61680
G1 X109.714 Y93.553 E19.64021
G1 X109.466 Y93.888 E19.66363
G1 X109.251 Y94.246 E19.68704
G1 X109.073 Y94.623 E19.71045
G1 X108.932 Y95.016 E19.73387
G1 X108.831 Y95.421 E19.75728
G1 X108.770 Y95.833 E19.78070
G1 X108.749 Y96.250 E19.80411
G1 X108.775 Y96.703 E19.82960
G1 X108.775 Y111.760 E20.67465
G1 X108.444 Y111.801 E20.69339
G1 X108.299 Y111.223 E20.72679
G1 X108.265 Y111.223 E20.72871
G1 X108.185 Y110.999 E20.74208
G1 X107.938 Y110.477 E20.77448
G1 X107.641 Y109.982 E20.80689
G1 X107.297 Y109.518 E20.83929
G1 X106.910 Y109.091 E20.87168
G1 X106.482 Y108.703 E20.90408
G1 X106.018 Y108.359 E20.93648
G1 X105.523 Y108.062 E20.96888
G1 X105.001 Y107.815 E21.00128
G1 X104.458 Y107.621 E21.03368
G1 X103.898 Y107.481 E21.06608
G1 X103.327 Y107.396 E21.09848
G1 X102.750 Y107.368 E21.13088
G1 X102.684 Y107.371 E21.13459
G1 X102.160 Y107.403
G1 F2760.000 E17.93459
G92 E0
G1 X93.188 Y104.986 F15000.000
G1 X93.159 Y104.387 F2760.000 E3.20000
G1 X93.153 Y104.265 F780.000 E3.20684
G1 X92.861 Y102.299 E3.31838
G1 X92.378 Y100.372 E3.42992
G1 X91.709 Y98.501 E3.54145
G1 X91.250 Y97.530 E3.60169
G1 X91.250 Y82.500 E4.44529
G1 X87.201 Y82.500 E4.67258
G1 X87.201 Y75.500 E5.06546
G1 X132.750 Y75.500 E7.62199
G1 X132.750 Y87.714 E8.30754
G1 X132.122 Y87.872 E8.34390
G1 X130.251 Y88.541 E8.45544
G1 X128.454 Y89.391 E8.56697
G1 X126.750 Y90.412 E8.67851
G1 X125.180 Y91.576 E8.78818
G1 X123.681 Y92.931 E8.90158
G1 X122.346 Y94.403 E9.01312
G1 X121.152 Y96.017 E9.12581
G1 X120.141 Y97.704 E9.23619
G1 X119.291 Y99.501 E9.34773
G1 X118.622 Y101.372 E9.45927
G1 X118.139 Y103.299 E9.57081
G1 X117.847 Y105.265 E9.68234
G1 X117.811 Y106.000 E9.72364
G1 X117.750 Y106.000 E9.72707
G1 X117.750 Y124.500 E10.76541
G1 X110.775 Y124.500 E11.15689
G1 X110.775 Y113.712 E11.76238
G1 X112.213 Y115.150 E11.87652
G1 X113.787 Y115.150 E11.96486
G1 X114.900 Y114.037 E12.05320
G1 X114.900 Y112.463 E12.14155
G1 X113.787 Y111.350 E12.22989
G1 X112.213 Y111.350 E12.31824
G1 X110.775 Y112.788 E12.43237
G1 X110.775 Y99.283 E13.19033
G1 X111.232 Y99.557 E13.22024
G1 X111.565 Y99.715 E13.24090
G1 X111.911 Y99.839 E13.26156
G1 X112.268 Y99.928 E13.28221
G1 X112.632 Y99.982 E13.30287
G1 X113.000 Y100.000 E13.32353
G1 X113.368 Y99.982 E13.34418
G1 X113.732 Y99.928 E13.36484
G1 X114.089 Y99.839 E13.38550
G1 X114.435 Y99.715 E13.40615
G1 X114.768 Y99.557 E13.42681
G1 X115.084 Y99.368 E13.44747
G1 X115.379 Y99.149 E13.46812
G1 X115.652 Y98.902 E13.48878
G1 X115.899 Y98.629 E13.50944
G1 X116.118 Y98.334 E13.53009
G1 X116.308 Y98.018 E13.55075
G1 X116.465 Y97.685 E13.57141
G1 X116.589 Y97.339 E13.59206
G1 X116.678 Y96.982 E13.61272
G1 X116.732 Y96.618 E13.63338
G1 X116.750 Y96.250 E13.65403
G1 X116.732 Y95.882 E13.67469
G1 X116.678 Y95.518 E13.69535
G1 X116.589 Y95.161 E13.71600
G1 X116.465 Y94.815 E13.73666
G1 X116.308 Y94.482 E13.75732
G1 X116.118 Y94.166 E13.77797
G1 X115.899 Y93.871 E13.79863
G1 X115.652 Y93.598 E13.81929
G1 X115.379 Y93.351 E13.83994
G1 X115.084 Y93.132 E13.86060
G1 X114.768 Y92.943 E13.88126
G1 X114.435 Y92.785 E13.90191
G1 X114.089 Y92.661 E13.92257
G1 X113.732 Y92.572 E13.94323
G1 X113.368 Y92.518 E13.96388
G1 X113.000 Y92.500 E13.98454
G1 X112.632 Y92.518 E14.00520
G1 X112.268 Y92.572 E14.02585
G1 X111.911 Y92.661 E14.04651
G1 X111.565 Y92.785 E14.06716
G1 X111.232 Y92.943 E14.08782
G1 X110.916 Y93.132 E14.10848
G1 X110.621 Y93.351 E14.12913
G1 X110.348 Y93.598 E14.14979
G1 X110.101 Y93.871 E14.17045
G1 X109.882 Y94.166 E14.19111
G1 X109.693 Y94.482 E14.21176
G1 X109.535 Y94.815 E14.23242
G1 X109.411 Y95.161 E14.25307
G1 X109.322 Y95.518 E14.27373
G1 X109.268 Y95.882 E14.29439
G1 X109.250 Y96.250 E14.31504
G1 X109.275 Y96.666 E14.33846
G1 X109.275 Y124.500 E15.90066
G1 X95.150 Y124.500 E16.69345
G1 X95.150 Y119.100 E16.99653
G1 X93.250 Y119.100 E17.10317
G1 X93.250 Y105.075 E17.89034
G1 X93.188 Y104.986 E17.89642
G1 X93.736 Y105.193 F2760.000 E14.69642
G92 E0
G1 X111.151 Y113.433 F15000.000
G1 X111.217 Y113.592 F2760.000 E3.20000
G1 X111.217 Y113.592 F1560.000
G1 X111.089 Y113.297 F15000.000
G1 X111.065 Y113.250 F780.000 E3.20294
G1 X111.096 Y113.181 F15000.000
G1 X111.217 Y112.908 F780.000 E3.21972
G1 X111.065 Y113.250 F2760.000 E0.01972
G92 E0
G1 X112.354 Y110.509 F15000.000
G1 X111.930 Y110.085 F2760.000 E3.20000
G1 X111.616 Y109.771 F1200.000 E3.22510
G1 X111.616 Y109.059 E3.26534
G1 X113.066 Y110.509 E3.38127
G1 X113.778 Y110.509 E3.42152
G1 X111.616 Y108.347 E3.59436
G1 X111.616 Y107.635 E3.63461
G1 X116.909 Y112.928 E4.05772
G1 X116.909 Y113.640 E4.09797
G1 X115.741 Y112.472 E4.19136
G1 X115.741 Y113.184 E4.23160
G1 X116.909 Y114.352 E4.32500
G1 X116.909 Y115.064 E4.36524
G1 X115.741 Y113.896 E4.45864
G1 X115.583 Y114.450 F15000.000
G1 X116.909 Y115.776 F1200.000 E4.56466
G1 X116.909 Y116.489 E4.60490
G1 X115.227 Y114.806 E4.73938
G1 X114.871 Y115.162 E4.76784
G1 X116.909 Y117.201 E4.93078
G1 X116.909 Y117.913 E4.97102
G1 X114.515 Y115.518 E5.16242
G1 X114.159 Y115.874 E5.19088
G1 X116.909 Y118.625 E5.41074
G1 X116.909 Y119.337 E5.45098
G1 X113.563 Y115.991 E5.71844
G1 X112.851 Y115.991 E5.75868
G1 X116.909 Y120.049 E6.08305
G1 X116.909 Y120.761 E6.12330
G1 X112.139 Y115.991 E6.50459
G1 X111.616 Y116.180 E6.53603
G1 X116.909 Y121.473 E6.95914
G1 F2760.000 E3.75914
G92 E0
G1 X111.616 Y123.300 F15000.000
G1 X111.975 Y123.659 F2760.000 E3.20000
G1 X111.975 Y123.659 F2400.000
G1 X112.687 Y123.659 E3.24025
G1 X111.616 Y122.588 E3.32585
G1 X111.616 Y121.876 E3.36610
G1 X113.399 Y123.659 E3.50862
G1 X114.111 Y123.659 E3.54887
G1 X111.616 Y121.164 E3.74831
G1 X111.616 Y120.452 E3.78856
G1 X114.823 Y123.659 E4.04491
G1 X115.535 Y123.659 E4.08516
G1 X111.616 Y119.740 E4.39844
G1 X111.616 Y119.028 E4.43868
G1 X116.247 Y123.659 E4.80887
G1 X116.909 Y123.609 E4.84640
G1 X111.616 Y118.316 E5.26951
G1 X111.616 Y117.604 E5.30976
G1 X116.909 Y122.897 E5.73287
G1 X116.909 Y122.185 E5.77312
G1 X111.616 Y116.892 E6.19623
G1 F2760.000 E2.99623
G92 E0
G1 X107.857 Y116.693 F15000.000
G1 X108.281 Y117.117 F2760.000 E3.20000
G1 X108.434 Y117.270 F1200.000 E3.21226
G1 X108.434 Y117.982 E3.25250
G1 X107.553 Y117.102 E3.32291
