; generated by Slic3r 0.9.9-dev on 2013-04-24 at 11:21:34

; H-PLA-03-025-1g

; layer_height = 0.25
; perimeters = 2
; top_solid_layers = 4
; bottom_solid_layers = 3
; fill_density = 0.4
; perimeter_speed = 20
; infill_speed = 32
; travel_speed = 250
; scale = 1
; nozzle_diameter = 0.3
; filament_diameter = 1.75
; extrusion_multiplier = 0.9
; perimeters extrusion width = 0.30mm
; infill extrusion width = 0.30mm
; first layer extrusion width = 0.50mm

M107
M190 S57 ; wait for bed temperature to be reached
M104 S200 ; set temperature
G28 X0 Y0
G1 X80 Y80 F12000
G28 Z0
G1 Z0.25 F200
G1 X15 Y20 F12000
M109 S200 ; wait for temperature to be reached
G90 ; use absolute coordinates
G21 ; set units to millimeters
G92 E0
M82 ; use absolute distances for extrusion
G1 F2220.000 E-2.00000
G92 E0
G1 Z0.300 F15000.000
G1 X56.703 Y73.077
G1 X56.822 Y72.985 F2220.000 E2.00000
G1 X58.013 Y72.067 F600.000 E2.07718
G1 X59.133 Y71.277 E2.14750
G1 X60.813 Y70.207 E2.24969
G1 X61.993 Y69.537 E2.31932
G1 X63.513 Y68.767 E2.40674
G1 X63.803 Y68.637 E2.42305
G1 X65.053 Y68.087 E2.49312
G1 X66.883 Y67.377 E2.59383
G1 X68.503 Y66.847 E2.68129
G1 X69.813 Y66.487 E2.75099
G1 X71.433 Y66.117 E2.83625
G1 X73.393 Y65.777 E2.93832
G1 X74.753 Y65.607 E3.00864
G1 X76.763 Y65.457 E3.11206
G1 X78.343 Y65.427 E3.19314
G1 X137.803 Y66.147 E6.24417
G1 X139.553 Y66.207 E6.33401
G1 X140.913 Y66.307 E6.40398
G1 X142.553 Y66.497 E6.48869
G1 X144.553 Y66.837 E6.59278
G1 X146.223 Y67.227 E6.68077
G1 X147.533 Y67.597 E6.75061
G1 X149.063 Y68.087 E6.83304
G1 X151.003 Y68.837 E6.93976
G1 X152.473 Y69.497 E7.02244
G1 X153.693 Y70.107 E7.09242
G1 X155.173 Y70.937 E7.17949
G1 X156.853 Y72.007 E7.28168
G1 X158.243 Y72.987 E7.36895
G1 X159.313 Y73.827 E7.43874
G1 X160.573 Y74.907 E7.52389
G1 X161.793 Y76.057 E7.60991
G1 X162.963 Y77.277 E7.69664
G1 X164.063 Y78.537 E7.78246
G1 X165.093 Y79.837 E7.86756
G1 X166.073 Y81.227 E7.95482
G1 X167.143 Y82.907 E8.05702
G1 X167.813 Y84.087 E8.12664
G1 X168.583 Y85.607 E8.21407
G1 X169.243 Y87.077 E8.29674
G1 X169.993 Y89.017 E8.40346
G1 X170.483 Y90.547 E8.48589
G1 X170.943 Y92.197 E8.57378
G1 X171.243 Y93.527 E8.64373
G1 X171.583 Y95.527 E8.74782
G1 X171.773 Y97.167 E8.83253
G1 X171.873 Y98.527 E8.90250
G1 X171.923 Y100.167 E8.98669
G1 X171.873 Y102.187 E9.09036
G1 X171.773 Y103.547 E9.16033
G1 X171.543 Y105.507 E9.26158
G1 X171.313 Y106.857 E9.33185
G1 X170.943 Y108.527 E9.41961
G1 X170.493 Y110.157 E9.50637
G1 X169.993 Y111.707 E9.58994
G1 X169.253 Y113.617 E9.69503
G1 X168.573 Y115.137 E9.78047
G1 X167.963 Y116.347 E9.85000
G1 X167.153 Y117.797 E9.93522
G1 X166.243 Y119.237 E10.02262
G1 X165.113 Y120.847 E10.12354
G1 X164.063 Y122.187 E10.21089
G1 X163.173 Y123.217 E10.28073
G1 X162.003 Y124.447 E10.36783
G1 X160.573 Y125.807 E10.46909
G1 X159.313 Y126.887 E10.55423
G1 X158.243 Y127.727 E10.62403
G1 X156.853 Y128.707 E10.71129
G1 X155.173 Y129.777 E10.81349
G1 X153.733 Y130.587 E10.89826
G1 X152.513 Y131.207 E10.96848
G1 X150.963 Y131.897 E11.05553
G1 X149.103 Y132.617 E11.15786
G1 X147.483 Y133.147 E11.24532
G1 X146.173 Y133.507 E11.31502
G1 X144.553 Y133.877 E11.40028
G1 X142.603 Y134.217 E11.50184
G1 X141.253 Y134.387 E11.57166
G1 X139.223 Y134.537 E11.67610
G1 X137.643 Y134.567 E11.75718
G1 X78.123 Y133.837 E14.81129
G1 X76.763 Y133.807 E14.88109
G1 X74.753 Y133.657 E14.98451
G1 X73.393 Y133.487 E15.05483
G1 X71.433 Y133.147 E15.15690
G1 X69.813 Y132.777 E15.24216
G1 X68.503 Y132.417 E15.31186
G1 X66.883 Y131.887 E15.39932
G1 X65.053 Y131.177 E15.50003
G1 X63.513 Y130.497 E15.58641
G1 X62.293 Y129.887 E15.65639
G1 X60.813 Y129.057 E15.74346
G1 X59.133 Y127.987 E15.84565
G1 X58.013 Y127.197 E15.91597
G1 X56.703 Y126.187 E16.00085
G1 X55.413 Y125.087 E16.08783
G1 X53.963 Y123.707 E16.19054
G1 X52.813 Y122.487 E16.27656
G1 X51.923 Y121.457 E16.34640
G1 X50.703 Y119.887 E16.44842
G1 X49.743 Y118.507 E16.53467
G1 X48.843 Y117.087 E16.62093
G1 X48.173 Y115.907 E16.69055
G1 X47.403 Y114.387 E16.77798
G1 X46.613 Y112.567 E16.87978
G1 X46.013 Y111.017 E16.96506
G1 X45.583 Y109.727 E17.03483
G1 X45.123 Y108.087 E17.12222
G1 X44.693 Y106.137 E17.22467
G1 X44.413 Y104.507 E17.30953
G1 X44.243 Y103.147 E17.37986
G1 X44.113 Y101.477 E17.46580
G1 X44.063 Y99.767 E17.55357
G1 X44.113 Y97.787 E17.65520
G1 X44.243 Y96.117 E17.74114
G1 X44.413 Y94.757 E17.81147
G1 X44.753 Y92.797 E17.91353
G1 X45.123 Y91.177 E17.99879
G1 X45.483 Y89.867 E18.06850
G1 X46.013 Y88.247 E18.15595
G1 X46.723 Y86.417 E18.25667
G1 X47.403 Y84.877 E18.34304
G1 X48.013 Y83.657 E18.41303
G1 X48.843 Y82.177 E18.50009
G1 X49.913 Y80.497 E18.60229
G1 X50.703 Y79.377 E18.67261
G1 X51.713 Y78.067 E18.75748
G1 X53.023 Y76.547 E18.86044
G1 X53.963 Y75.557 E18.93048
G1 X55.183 Y74.387 E19.01721
G1 X56.650 Y73.120 E19.11665
G1 X56.703 Y73.077 E19.12017
G1 F2220.000 E17.12017
G92 E0
G1 X80.506 Y76.407 F15000.000
G1 X80.655 Y76.425 F2220.000 E2.00000
G1 X81.697 Y76.554 F600.000 E2.05389
G1 X82.826 Y76.749 E2.11266
G1 X83.943 Y77.000 E2.17143
G1 X85.047 Y77.306 E2.23020
G1 X86.135 Y77.665 E2.28897
G1 X87.203 Y78.077 E2.34773
G1 X88.251 Y78.541 E2.40650
G1 X89.274 Y79.056 E2.46527
G1 X90.334 Y79.661 E2.52791
G1 X91.238 Y80.234 E2.58280
G1 X92.174 Y80.893 E2.64156
G1 X93.077 Y81.598 E2.70033
G1 X93.945 Y82.346 E2.75910
G1 X94.774 Y83.136 E2.81787
G1 X95.564 Y83.965 E2.87664
G1 X96.312 Y84.833 E2.93540
G1 X97.017 Y85.736 E2.99417
G1 X97.676 Y86.672 E3.05294
G1 X98.289 Y87.640 E3.11171
G1 X98.854 Y88.636 E3.17047
G1 X99.735 Y90.387 E3.27106
G1 X81.577 Y96.287 E4.25068
G1 X80.864 Y95.759 E4.29619
G1 X80.438 Y95.503 E4.32169
G1 X80.438 Y76.764 E5.28318
G1 X80.506 Y76.407
G1 X80.963 Y76.924 F15000.000
G1 X81.630 Y77.006 F600.000 E5.31767
G1 X82.737 Y77.198 E5.37529
G1 X83.832 Y77.444 E5.43291
G1 X84.915 Y77.743 E5.49052
G1 X85.981 Y78.096 E5.54814
G1 X87.029 Y78.500 E5.60575
G1 X88.055 Y78.955 E5.66337
G1 X89.058 Y79.460 E5.72099
G1 X90.035 Y80.013 E5.77860
G1 X90.984 Y80.614 E5.83621
G1 X91.902 Y81.260 E5.89383
G1 X92.787 Y81.951 E5.95145
G1 X93.638 Y82.685 E6.00907
G1 X94.451 Y83.459 E6.06668
G1 X95.225 Y84.272 E6.12430
G1 X95.959 Y85.123 E6.18191
G1 X96.650 Y86.008 E6.23953
G1 X97.296 Y86.926 E6.29715
G1 X97.897 Y87.875 E6.35476
G1 X98.450 Y88.852 E6.41238
G1 X99.087 Y90.117 E6.48506
G1 X81.660 Y95.780 E7.42527
G1 X81.119 Y95.379 E7.45983
G1 X80.895 Y95.245 E7.47320
G1 X80.895 Y76.984 E8.41013
G1 X80.963 Y76.924 E8.41479
G1 X80.438 Y76.764 F2220.000 E6.41479
G92 E0
G1 X76.109 Y76.467 F15000.000
G1 X76.109 Y76.617 F2220.000 E2.00000
G1 X76.109 Y95.504 F600.000 E2.96904
G1 X75.682 Y95.759 E2.99454
G1 X74.970 Y96.287 E3.04005
G1 X56.812 Y90.387 E4.01967
G1 X57.693 Y88.636 E4.12026
G1 X58.258 Y87.640 E4.17902
G1 X58.870 Y86.672 E4.23779
G1 X59.530 Y85.736 E4.29656
G1 X60.235 Y84.833 E4.35533
G1 X60.983 Y83.965 E4.41409
G1 X61.773 Y83.136 E4.47286
G1 X62.602 Y82.346 E4.53163
G1 X63.469 Y81.598 E4.59040
G1 X64.372 Y80.893 E4.64916
G1 X65.309 Y80.234 E4.70793
G1 X66.276 Y79.621 E4.76670
G1 X67.273 Y79.056 E4.82546
G1 X68.296 Y78.541 E4.88423
G1 X69.343 Y78.077 E4.94300
G1 X70.412 Y77.665 E5.00176
G1 X71.499 Y77.306 E5.06053
G1 X72.603 Y77.000 E5.11930
G1 X73.721 Y76.749 E5.17807
G1 X74.849 Y76.554 E5.23684
G1 X75.746 Y76.443 E5.28318
G1 X76.109 Y76.467
G1 X75.652 Y76.984 F15000.000
G1 X75.652 Y95.245 F600.000 E6.22012
G1 X75.428 Y95.379 E6.23349
G1 X74.887 Y95.780 E6.26805
G1 X57.459 Y90.117 E7.20826
G1 X58.096 Y88.852 E7.28094
G1 X58.650 Y87.875 E7.33856
G1 X59.251 Y86.926 E7.39617
G1 X59.897 Y86.008 E7.45379
G1 X60.588 Y85.123 E7.51141
G1 X61.322 Y84.272 E7.56902
G1 X62.096 Y83.459 E7.62664
G1 X62.909 Y82.685 E7.68425
G1 X63.759 Y81.951 E7.74187
G1 X64.645 Y81.260 E7.79949
G1 X65.563 Y80.614 E7.85710
G1 X66.511 Y80.013 E7.91472
G1 X67.489 Y79.460 E7.97233
G1 X68.492 Y78.955 E8.02995
G1 X69.518 Y78.500 E8.08757
G1 X70.566 Y78.096 E8.14518
G1 X71.632 Y77.743 E8.20280
G1 X72.714 Y77.444 E8.26041
G1 X73.810 Y77.198 E8.31803
G1 X74.916 Y77.006 E8.37565
G1 X75.584 Y76.924 E8.41014
G1 X75.652 Y76.984 E8.41480
G1 X75.746 Y76.443 F2220.000 E6.41480
G92 E0
G1 X73.683 Y100.482 F15000.000
G1 X73.720 Y100.628 F2220.000 E2.00000
G1 X73.811 Y100.990 F600.000 E2.01918
G1 X74.076 Y101.732 E2.05957
G1 X62.858 Y117.171 E3.03876
G1 X61.773 Y116.137 E3.11568
G1 X60.983 Y115.308 E3.17444
G1 X60.235 Y114.441 E3.23321
G1 X59.530 Y113.538 E3.29198
G1 X58.870 Y112.601 E3.35075
G1 X58.258 Y111.634 E3.40951
G1 X57.693 Y110.637 E3.46828
G1 X57.178 Y109.614 E3.52705
G1 X56.714 Y108.567 E3.58582
G1 X56.302 Y107.498 E3.64458
G1 X55.942 Y106.411 E3.70335
G1 X55.637 Y105.307 E3.76212
G1 X55.386 Y104.189 E3.82088
G1 X55.190 Y103.061 E3.87965
G1 X55.050 Y101.924 E3.93842
G1 X54.966 Y100.782 E3.99719
G1 X54.938 Y99.637 E4.05595
G1 X54.966 Y98.492 E4.11472
G1 X55.050 Y97.349 E4.17349
G1 X55.190 Y96.213 E4.23226
G1 X55.486 Y94.509 E4.32100
G1 X73.319 Y100.303 E5.28307
G1 X73.683 Y100.482
G1 X73.301 Y100.839 F15000.000
G1 X73.373 Y101.123 F600.000 E5.29811
G1 X73.564 Y101.658 E5.32726
G1 X62.795 Y116.480 E6.26728
G1 X62.096 Y115.814 E6.31684
G1 X61.322 Y115.001 E6.37445
G1 X60.588 Y114.151 E6.43207
G1 X59.897 Y113.265 E6.48969
G1 X59.251 Y112.347 E6.54730
G1 X58.650 Y111.399 E6.60492
G1 X58.096 Y110.421 E6.66253
G1 X57.591 Y109.418 E6.72015
G1 X57.136 Y108.392 E6.77777
G1 X56.732 Y107.344 E6.83538
G1 X56.380 Y106.278 E6.89300
G1 X56.081 Y105.196 E6.95061
G1 X55.834 Y104.100 E7.00823
G1 X55.642 Y102.994 E7.06585
G1 X55.505 Y101.879 E7.12346
G1 X55.422 Y100.759 E7.18108
G1 X55.395 Y99.637 E7.23869
G1 X55.422 Y98.514 E7.29631
G1 X55.505 Y97.394 E7.35393
G1 X55.642 Y96.280 E7.41154
G1 X55.846 Y95.106 E7.47265
G1 X73.220 Y100.751 E8.40993
G1 X73.301 Y100.839 E8.41609
G1 X74.304 Y100.245 F15000.000
G1 X73.953 Y99.637 F600.000 E8.45215
G1 X76.113 Y95.895 E8.67383
G1 X80.434 Y95.895 E8.89551
G1 X82.594 Y99.637 E9.11719
G1 X80.434 Y103.378 E9.33887
G1 X76.113 Y103.378 E9.56055
G1 X74.521 Y100.621 E9.72389
G1 X74.304 Y100.245
G1 X74.700 Y100.017 F15000.000
G1 X74.481 Y99.637 F600.000 E9.74641
G1 X76.377 Y96.352 E9.94101
G1 X80.170 Y96.352 E10.13561
G1 X82.066 Y99.637 E10.33021
G1 X80.170 Y102.921 E10.52481
G1 X76.377 Y102.921 E10.71941
G1 X74.769 Y100.136 E10.88446
G1 X74.700 Y100.017 E10.89150
G1 X74.521 Y100.621 F2220.000 E8.89150
G92 E0
G1 X82.494 Y101.667 F15000.000
G1 X82.545 Y101.526 F2220.000 E2.00000
G1 X82.736 Y100.990 F600.000 E2.02917
G1 X82.880 Y100.416 E2.05957
G1 X101.061 Y94.509 E3.04040
G1 X101.356 Y96.213 E3.12914
G1 X101.497 Y97.349 E3.18791
G1 X101.581 Y98.492 E3.24668
G1 X101.609 Y99.637 E3.30544
G1 X101.581 Y100.782 E3.36421
G1 X101.497 Y101.924 E3.42298
G1 X101.356 Y103.061 E3.48174
G1 X101.161 Y104.189 E3.54051
G1 X100.910 Y105.307 E3.59928
G1 X100.604 Y106.411 E3.65805
G1 X100.245 Y107.498 E3.71682
G1 X99.833 Y108.567 E3.77558
G1 X99.369 Y109.614 E3.83435
G1 X98.854 Y110.637 E3.89312
G1 X98.289 Y111.634 E3.95188
G1 X97.676 Y112.601 E4.01065
G1 X97.017 Y113.538 E4.06942
G1 X96.312 Y114.441 E4.12819
G1 X95.564 Y115.308 E4.18695
G1 X94.774 Y116.137 E4.24572
G1 X93.688 Y117.171 E4.32264
G1 X82.686 Y102.027 E5.28307
G1 X82.494 Y101.667
G1 X83.006 Y101.594 F15000.000
G1 X83.174 Y101.123 F600.000 E5.30870
G1 X83.262 Y100.772 E5.32726
G1 X100.701 Y95.106 E6.26806
G1 X100.904 Y96.280 E6.32917
G1 X101.042 Y97.394 E6.38679
G1 X101.124 Y98.514 E6.44441
G1 X101.152 Y99.637 E6.50202
G1 X101.124 Y100.759 E6.55964
G1 X101.042 Y101.879 E6.61725
G1 X100.904 Y102.994 E6.67487
G1 X100.712 Y104.100 E6.73248
G1 X100.466 Y105.196 E6.79010
G1 X100.167 Y106.278 E6.84772
G1 X99.814 Y107.344 E6.90533
G1 X99.410 Y108.392 E6.96295
G1 X98.955 Y109.418 E7.02056
G1 X98.450 Y110.421 E7.07818
G1 X97.897 Y111.399 E7.13580
G1 X97.296 Y112.347 E7.19341
G1 X96.650 Y113.265 E7.25103
G1 X95.959 Y114.151 E7.30864
G1 X95.225 Y115.001 E7.36626
G1 X94.451 Y115.814 E7.42388
G1 X93.751 Y116.480 E7.47343
G1 X83.023 Y101.714 E8.40993
G1 X83.006 Y101.594 E8.41615
G1 X82.686 Y102.027 F2220.000 E6.41615
G92 E0
G1 X79.002 Y104.322 F15000.000
G1 X79.090 Y104.443 F2220.000 E2.00000
G1 X90.208 Y119.746 F600.000 E2.97053
G1 X88.251 Y120.732 E3.08299
G1 X87.203 Y121.196 E3.14176
G1 X86.135 Y121.608 E3.20052
G1 X85.047 Y121.968 E3.25929
G1 X83.943 Y122.273 E3.31806
G1 X82.826 Y122.524 E3.37683
G1 X81.697 Y122.720 E3.43559
G1 X80.636 Y122.851 E3.49048
G1 X79.418 Y122.944 E3.55312
G1 X78.273 Y122.972 E3.61189
G1 X77.128 Y122.944 E3.67066
G1 X75.986 Y122.860 E3.72943
G1 X74.849 Y122.720 E3.78819
G1 X73.721 Y122.524 E3.84696
G1 X72.603 Y122.273 E3.90573
G1 X71.499 Y121.968 E3.96449
G1 X70.412 Y121.608 E4.02326
G1 X69.343 Y121.196 E4.08203
G1 X68.296 Y120.732 E4.14080
G1 X66.338 Y119.746 E4.25325
G1 X77.585 Y104.266 E5.23500
G1 X78.273 Y104.300 E5.27035
G1 X78.596 Y104.284 E5.28694
G1 X79.002 Y104.322
G1 X78.777 Y104.791 F15000.000
G1 X89.522 Y119.580 F600.000 E6.22489
G1 X88.055 Y120.319 E6.30917
G1 X87.029 Y120.774 E6.36679
G1 X85.981 Y121.178 E6.42440
G1 X84.915 Y121.530 E6.48202
G1 X83.832 Y121.829 E6.53964
G1 X82.737 Y122.076 E6.59725
G1 X81.630 Y122.268 E6.65487
G1 X80.580 Y122.397 E6.70919
G1 X79.396 Y122.488 E6.77010
G1 X78.273 Y122.515 E6.82771
G1 X77.151 Y122.488 E6.88533
G1 X76.031 Y122.405 E6.94295
G1 X74.916 Y122.268 E7.00056
G1 X73.810 Y122.076 E7.05818
G1 X72.714 Y121.829 E7.11579
G1 X71.632 Y121.530 E7.17341
G1 X70.566 Y121.178 E7.23103
G1 X69.518 Y120.774 E7.28864
G1 X68.492 Y120.319 E7.34626
G1 X67.024 Y119.580 E7.43054
G1 X77.810 Y104.735 E8.37201
G1 X78.273 Y104.758 E8.39583
G1 X78.669 Y104.738 E8.41613
G1 X78.777 Y104.791 E8.42232
G1 X78.596 Y104.284 F2220.000 E6.42232
G92 E0
G1 X80.892 Y126.802 F15000.000
G1 X80.742 Y126.813 F2220.000 E2.00000
G1 X79.613 Y126.897 F600.000 E2.05814
G1 X78.273 Y126.929 E2.12687
G1 X76.934 Y126.897 E2.19560
G1 X75.598 Y126.798 E2.26433
G1 X74.269 Y126.634 E2.33306
G1 X72.949 Y126.405 E2.40180
G1 X71.642 Y126.111 E2.47053
G1 X70.351 Y125.754 E2.53926
G1 X69.079 Y125.334 E2.60800
G1 X67.829 Y124.852 E2.67673
G1 X66.604 Y124.309 E2.74546
G1 X65.408 Y123.707 E2.81419
G1 X64.242 Y123.046 E2.88293
G1 X63.110 Y122.330 E2.95166
G1 X62.015 Y121.558 E3.02039
G1 X60.959 Y120.734 E3.08912
G1 X59.945 Y119.859 E3.15786
G1 X58.974 Y118.936 E3.22659
G1 X58.051 Y117.965 E3.29532
G1 X57.176 Y116.951 E3.36405
G1 X56.352 Y115.895 E3.43279
G1 X55.580 Y114.800 E3.50152
G1 X54.864 Y113.668 E3.57025
G1 X54.203 Y112.502 E3.63898
G1 X53.601 Y111.306 E3.70772
G1 X53.058 Y110.081 E3.77645
G1 X52.576 Y108.831 E3.84518
G1 X52.156 Y107.559 E3.91391
G1 X51.799 Y106.268 E3.98265
G1 X51.505 Y104.961 E4.05138
G1 X51.276 Y103.641 E4.12011
G1 X51.112 Y102.312 E4.18885
G1 X51.013 Y100.976 E4.25758
G1 X50.981 Y99.637 E4.32631
G1 X51.013 Y98.297 E4.39504
G1 X51.112 Y96.962 E4.46377
G1 X51.276 Y95.632 E4.53251
G1 X51.505 Y94.312 E4.60124
G1 X51.799 Y93.005 E4.66997
G1 X52.156 Y91.714 E4.73871
G1 X52.576 Y90.442 E4.80744
G1 X53.058 Y89.192 E4.87617
G1 X53.601 Y87.968 E4.94490
G1 X54.203 Y86.771 E5.01363
G1 X54.864 Y85.605 E5.08237
G1 X55.580 Y84.474 E5.15110
G1 X56.352 Y83.378 E5.21983
G1 X57.176 Y82.322 E5.28856
G1 X58.051 Y81.308 E5.35730
G1 X58.974 Y80.338 E5.42603
G1 X59.945 Y79.414 E5.49476
G1 X60.959 Y78.539 E5.56350
G1 X62.015 Y77.715 E5.63223
G1 X63.110 Y76.944 E5.70096
G1 X64.242 Y76.227 E5.76969
G1 X65.408 Y75.567 E5.83843
G1 X66.604 Y74.964 E5.90716
G1 X67.829 Y74.422 E5.97589
G1 X69.079 Y73.939 E6.04462
G1 X70.351 Y73.519 E6.11336
G1 X71.642 Y73.162 E6.18209
G1 X72.949 Y72.868 E6.25082
G1 X74.269 Y72.639 E6.31955
G1 X75.598 Y72.475 E6.38829
G1 X76.934 Y72.377 E6.45702
G1 X78.273 Y72.344 E6.52575
G1 X79.613 Y72.377 E6.59448
G1 X80.948 Y72.475 E6.66322
G1 X82.278 Y72.639 E6.73195
G1 X83.598 Y72.868 E6.80068
G1 X84.905 Y73.162 E6.86941
G1 X86.196 Y73.519 E6.93815
G1 X87.468 Y73.939 E7.00688
G1 X88.718 Y74.422 E7.07561
G1 X89.942 Y74.964 E7.14434
G1 X91.139 Y75.567 E7.21308
G1 X92.305 Y76.227 E7.28181
G1 X93.436 Y76.944 E7.35054
G1 X94.532 Y77.715 E7.41928
G1 X95.588 Y78.539 E7.48801
G1 X96.602 Y79.414 E7.55674
G1 X97.572 Y80.338 E7.62547
G1 X98.496 Y81.308 E7.69420
G1 X99.371 Y82.322 E7.76294
G1 X100.195 Y83.378 E7.83167
