; generated by Slic3r 0.9.9 on 2013-05-01 at 16:05:30

; H-PLA-03-025-1

; layer_height = 0.25
; perimeters = 3
; top_solid_layers = 4
; bottom_solid_layers = 3
; fill_density = 0.2
; perimeter_speed = 20
; infill_speed = 32
; travel_speed = 250
; nozzle_diameter = 0.3
; filament_diameter = 1.75
; extrusion_multiplier = 0.9
; perimeters extrusion width = 0.32mm
; infill extrusion width = 0.32mm
; solid infill extrusion width = 0.32mm
; top infill extrusion width = 0.32mm
; first layer extrusion width = 0.50mm

G21 ; set units to millimeters
M107
M190 S57 ; wait for bed temperature to be reached
M104 S200 ; set temperature
G28 X0 Y0
G28 Z0
G1 Z0.25 F200
G1 X15 Y20 F12000
M109 S200 ; wait for temperature to be reached
G90 ; use absolute coordinates
G92 E0
M82 ; use absolute distances for extrusion
G1 F3000.000 E-2.40000
G92 E0
G1 Z0.300 F15000.000
G1 X71.830 Y84.070
G1 F3000.000 E2.40000
G1 X72.250 Y83.740 F600.000 E2.42741
G1 X72.690 Y83.450 E2.45444
G1 X73.160 Y83.200 E2.48176
G1 X73.650 Y82.980 E2.50932
G1 X74.160 Y82.810 E2.53690
G1 X74.670 Y82.680 E2.56390
G1 X75.470 Y82.560 E2.60541
G1 X76.000 Y82.540 E2.63262
G1 X140.000 Y82.540 E5.91637
G1 X140.530 Y82.560 E5.94358
G1 X141.330 Y82.680 E5.98509
G1 X141.840 Y82.810 E6.01209
G1 X142.350 Y82.980 E6.03968
G1 X142.840 Y83.200 E6.06723
G1 X143.310 Y83.450 E6.09455
G1 X143.970 Y83.900 E6.13553
G1 X144.570 Y84.430 E6.17661
G1 X145.100 Y85.030 E6.21769
G1 X145.550 Y85.690 E6.25867
G1 X145.800 Y86.160 E6.28599
G1 X146.020 Y86.650 E6.31354
G1 X146.260 Y87.410 E6.35444
G1 X146.410 Y88.200 E6.39570
G1 X146.440 Y88.470 E6.40963
G1 X146.460 Y89.000 E6.43685
G1 X146.460 Y106.990 E7.35989
G1 X146.420 Y107.640 E7.39330
G1 X146.270 Y108.930 E7.45993
G1 X146.160 Y109.430 E7.48620
G1 X145.700 Y110.900 E7.56523
G1 X145.500 Y111.360 E7.59097
G1 X145.010 Y112.270 E7.64400
G1 X144.600 Y112.940 E7.68430
G1 X144.440 Y113.150 E7.69785
G1 X143.630 Y114.130 E7.76308
G1 X143.300 Y114.470 E7.78739
G1 X142.350 Y115.280 E7.85145
G1 X141.940 Y115.600 E7.87813
G1 X141.500 Y115.880 E7.90489
G1 X140.580 Y116.380 E7.95862
G1 X140.100 Y116.620 E7.98615
G1 X139.590 Y116.810 E8.01408
G1 X138.070 Y117.240 E8.09513
G1 X137.350 Y117.350 E8.13250
G1 X136.610 Y117.420 E8.17063
G1 X136.000 Y117.450 E8.20197
G1 X80.000 Y117.450 E11.07525
G1 X78.640 Y117.350 E11.14522
G1 X78.100 Y117.280 E11.17316
G1 X77.580 Y117.170 E11.20043
G1 X76.090 Y116.700 E11.28059
G1 X75.630 Y116.500 E11.30633
G1 X74.720 Y116.010 E11.35935
G1 X74.050 Y115.600 E11.39966
G1 X73.840 Y115.440 E11.41320
G1 X72.860 Y114.630 E11.47844
G1 X72.690 Y114.470 E11.49042
G1 X72.360 Y114.130 E11.51473
G1 X71.550 Y113.150 E11.57996
G1 X71.390 Y112.940 E11.59351
G1 X70.980 Y112.270 E11.63381
G1 X70.490 Y111.360 E11.68684
G1 X70.290 Y110.900 E11.71257
G1 X69.820 Y109.410 E11.79274
G1 X69.670 Y108.620 E11.83400
G1 X69.570 Y107.560 E11.88862
G1 X69.540 Y106.990 E11.91791
G1 X69.540 Y89.000 E12.84095
G1 X69.560 Y88.470 E12.86816
G1 X69.630 Y87.940 E12.89559
G1 X69.740 Y87.410 E12.92337
G1 X69.980 Y86.650 E12.96426
G1 X70.200 Y86.160 E12.99182
G1 X70.450 Y85.690 E13.01913
G1 X70.900 Y85.030 E13.06012
G1 X71.430 Y84.430 E13.10119
G1 X71.779 Y84.116 E13.12529
G1 F3000.000 E10.72529
G92 E0
G1 X106.680 Y104.714 F15000.000
G1 F3000.000 E2.40000
G1 X109.320 Y104.714 F600.000 E2.53541
G1 X110.639 Y107.000 E2.67083
G1 X109.320 Y109.286 E2.80624
G1 X106.680 Y109.286 E2.94165
G1 X105.361 Y107.000 E3.07707
G1 X106.646 Y104.774 E3.20896
G1 X106.944 Y105.171 F15000.000
G1 X109.056 Y105.171 F600.000 E3.31730
G1 X110.007 Y106.819 E3.41491
G1 X110.111 Y107.000 E3.42563
G1 X109.056 Y108.829 E3.53397
G1 X106.944 Y108.829 E3.64230
G1 X105.889 Y107.000 E3.75063
G1 X106.910 Y105.231 E3.85545
G1 X107.024 Y104.721 F15000.000
G1 X106.417 Y104.257
G1 X105.306 Y106.181 F600.000 E3.96939
G1 X105.143 Y106.137 E3.97807
G1 X105.143 Y94.900 E4.55460
G1 X105.367 Y94.856 E4.56633
G1 X105.595 Y95.405 E4.59685
G1 X108.000 Y96.402 E4.73043
G1 X110.405 Y95.405 E4.86401
G1 X110.633 Y94.856 E4.89453
G1 X110.857 Y94.900 E4.90627
G1 X110.857 Y106.137 E5.48279
G1 X110.694 Y106.181 E5.49147
G1 X109.583 Y104.257 E5.60542
G1 X106.485 Y104.257 E5.76439
G1 F3000.000 E3.36439
G92 E0
G1 X104.686 Y106.966 F15000.000
G1 F3000.000 E2.40000
G1 X104.686 Y89.686 F600.000 E3.28665
G1 X105.214 Y89.686 E3.31378
G1 X105.214 Y92.707 E3.46881
G1 X105.093 Y93.000 E3.48507
G1 X105.945 Y95.055 E3.59922
G1 X108.000 Y95.907 E3.71338
G1 X110.055 Y95.055 E3.82753
G1 X110.907 Y93.000 E3.94168
G1 X110.786 Y92.707 E3.95794
G1 X110.786 Y89.686 E4.11298
G1 X111.314 Y89.686 E4.14011
G1 X111.314 Y106.966 E5.02675
G1 X111.247 Y107.646 E5.06180
G1 X111.059 Y108.267 E5.09510
G1 X110.753 Y108.840 E5.12840
G1 X110.341 Y109.341 E5.16170
G1 X109.840 Y109.753 E5.19501
G1 X109.267 Y110.059 E5.22831
G1 X108.646 Y110.247 E5.26161
G1 X108.000 Y110.311 E5.29492
G1 X107.354 Y110.247 E5.32822
G1 X106.733 Y110.059 E5.36153
G1 X106.160 Y109.753 E5.39483
G1 X105.659 Y109.341 E5.42813
G1 X105.247 Y108.840 E5.46143
G1 X104.941 Y108.267 E5.49474
G1 X104.753 Y107.646 E5.52804
G1 X104.692 Y107.035 E5.55956
G1 X104.229 Y106.989 F15000.000
G1 X104.229 Y89.229 F600.000 E6.47082
G1 X105.671 Y89.229 E6.54485
G1 X105.671 Y92.798 E6.72800
G1 X105.588 Y93.000 E6.73921
G1 X106.294 Y94.706 E6.83394
G1 X108.000 Y95.412 E6.92866
G1 X109.706 Y94.706 E7.02338
G1 X110.412 Y93.000 E7.11811
G1 X110.329 Y92.798 E7.12932
G1 X110.329 Y89.229 E7.31247
G1 X111.771 Y89.229 E7.38651
G1 X111.771 Y106.989 E8.29776
G1 X111.698 Y107.736 E8.33626
G1 X111.483 Y108.443 E8.37418
G1 X111.135 Y109.095 E8.41211
G1 X110.666 Y109.666 E8.45003
G1 X110.095 Y110.135 E8.48795
G1 X109.443 Y110.483 E8.52587
G1 X108.736 Y110.698 E8.56380
G1 X108.000 Y110.770 E8.60172
G1 X107.264 Y110.698 E8.63964
G1 X106.557 Y110.483 E8.67757
G1 X105.905 Y110.135 E8.71549
G1 X105.334 Y109.666 E8.75341
G1 X104.865 Y109.095 E8.79133
G1 X104.517 Y108.443 E8.82926
G1 X104.302 Y107.736 E8.86718
G1 X104.235 Y107.057 E8.90217
G1 X104.617 Y106.747 F15000.000
G1 F3000.000 E6.50217
G92 E0
G1 X105.474 Y104.878 F15000.000
G1 F3000.000 E2.40000
G1 X105.850 Y104.577 F960.000 E2.42587
G1 X105.474 Y104.201 E2.45442
G1 X106.097 Y104.148 E2.48804
G1 X105.474 Y103.524 E2.53541
G1 X105.474 Y102.847 E2.57179
G1 X106.553 Y103.926 E2.65377
G1 X107.230 Y103.926 E2.69014
G1 X105.474 Y102.170 E2.82357
G1 X105.474 Y101.493 E2.85994
G1 X107.907 Y103.926 E3.04481
G1 X108.584 Y103.926 E3.08118
G1 X105.474 Y100.816 E3.31749
G1 X105.474 Y100.139 E3.35386
G1 X109.261 Y103.926 E3.64161
G1 X110.526 Y103.838 F15000.000
G1 X105.474 Y98.785 F960.000 E4.02552
G1 X105.474 Y99.462 E4.06190
G1 X110.526 Y104.514 E4.44581
G1 X110.526 Y103.161 F15000.000
G1 X105.474 Y98.109 F960.000 E4.82971
G1 X105.474 Y97.432 E4.86609
G1 X110.526 Y102.484 E5.25000
G1 X110.526 Y101.807 E5.28637
G1 X105.474 Y96.755 E5.67028
G1 X105.474 Y96.078 E5.70665
G1 X110.526 Y101.130 E6.09056
G1 X110.526 Y100.453 E6.12694
G1 X106.009 Y95.935 E6.47022
G1 X107.164 Y96.414 E6.53743
G1 X110.526 Y99.776 E6.79290
G1 X110.526 Y99.099 E6.82927
G1 X108.132 Y96.705 E7.01116
G1 X108.611 Y96.507 E7.03900
G1 X110.526 Y98.422 E7.18451
G1 X110.526 Y97.745 E7.22089
G1 X109.090 Y96.309 E7.33002
G1 X109.569 Y96.110 E7.35786
G1 X110.526 Y97.068 E7.43063
G1 X110.526 Y96.391 E7.46700
G1 X110.047 Y95.912 E7.50339
G1 X110.526 Y95.714 E7.53123
G1 F3000.000 E5.13123
G92 E0
G1 X105.471 Y105.237 F15000.000
G1 F3000.000 E2.40000
G1 X105.597 Y105.021 F600.000 E2.40680
G1 X105.471 Y104.895 E2.41161
G1 X105.722 Y104.804 E2.41885
G1 F3000.000 E0.01885
G92 E0
G1 X105.014 Y106.943 F15000.000
G1 F3000.000 E2.40000
G1 X105.139 Y106.727 F600.000 E2.40680
G1 X105.014 Y106.601 E2.41161
G1 X105.265 Y106.510 E2.41886
G1 X105.036 Y107.171 F15000.000
G1 X105.036 Y107.171 F600.000 E2.41886
G1 F3000.000 E0.01886
G92 E0
G1 X105.880 Y108.857 F15000.000
G1 F3000.000 E2.40000
G1 X105.880 Y108.856 F600.000 E2.40005
G1 X106.378 Y109.497 F15000.000
G1 X106.378 Y109.497 F600.000 E2.40006
G1 X106.598 Y109.614 F15000.000
G1 X106.598 Y109.614 F600.000 E2.40007
G1 X107.410 Y109.764 F15000.000
G1 X108.590 Y109.764 F600.000 E2.51076
G1 X109.357 Y109.639 F15000.000
G1 X109.357 Y109.638 F600.000 E2.51077
G1 X109.557 Y109.532 F15000.000
G1 X109.557 Y109.531 F600.000 E2.51077
G1 X110.120 Y108.857 F15000.000
G1 X110.434 Y108.422 F600.000 E2.54271
G1 X110.394 Y108.382 E2.54607
G1 X110.668 Y107.907 E2.57870
G1 X110.929 Y107.156 F15000.000
G1 X110.929 Y107.155 F600.000 E2.57871
G1 X110.986 Y106.943 F15000.000
G1 X110.986 Y106.442 F600.000 E2.59863
G1 X110.529 Y105.237 F15000.000
G1 X110.529 Y104.737 F600.000 E2.61855
G1 F3000.000 E0.21855
G92 E0
G1 X110.633 Y94.521 F15000.000
G1 F3000.000 E2.40000
G1 X110.750 Y94.236 F600.000 E2.40982
G1 X110.986 Y94.472 E2.42046
G1 X110.986 Y94.070 E2.43329
G1 X110.868 Y93.952 E2.43861
G1 X110.986 Y93.668 E2.44843
G1 F3000.000 E0.04843
G92 E0
G1 X105.014 Y94.591 F15000.000
G1 F3000.000 E2.40000
G1 X105.341 Y94.456 F600.000 E2.41294
G1 X105.014 Y94.129 E2.42987
G1 X105.014 Y93.668 E2.44677
G1 F3000.000 E0.04677
G92 E0
G1 X120.680 Y104.714 F15000.000
G1 F3000.000 E2.40000
G1 X123.320 Y104.714 F600.000 E2.53541
G1 X124.639 Y107.000 E2.67083
G1 X123.320 Y109.286 E2.80624
G1 X120.680 Y109.286 E2.94165
G1 X119.361 Y107.000 E3.07707
G1 X120.646 Y104.774 E3.20896
G1 X120.944 Y105.171 F15000.000
G1 X123.056 Y105.171 F600.000 E3.31730
G1 X124.007 Y106.819 E3.41491
G1 X124.111 Y107.000 E3.42563
G1 X123.056 Y108.829 E3.53397
G1 X120.944 Y108.829 E3.64230
G1 X119.889 Y107.000 E3.75063
G1 X120.910 Y105.231 E3.85545
G1 X121.024 Y104.721 F15000.000
G1 X120.417 Y104.257
G1 X119.306 Y106.181 F600.000 E3.96939
G1 X119.143 Y106.137 E3.97807
G1 X119.143 Y94.900 E4.55460
G1 X119.367 Y94.856 E4.56633
G1 X119.595 Y95.405 E4.59685
G1 X122.000 Y96.402 E4.73043
G1 X124.405 Y95.405 E4.86401
G1 X124.633 Y94.856 E4.89453
G1 X124.857 Y94.900 E4.90627
G1 X124.857 Y106.137 E5.48279
G1 X124.694 Y106.181 E5.49147
G1 X123.583 Y104.257 E5.60542
G1 X120.485 Y104.257 E5.76439
G1 F3000.000 E3.36439
G92 E0
G1 X118.686 Y106.966 F15000.000
G1 F3000.000 E2.40000
G1 X118.686 Y89.686 F600.000 E3.28665
G1 X119.214 Y89.686 E3.31378
G1 X119.214 Y92.707 E3.46881
G1 X119.093 Y93.000 E3.48507
G1 X119.945 Y95.055 E3.59922
G1 X122.000 Y95.907 E3.71338
G1 X124.055 Y95.055 E3.82753
G1 X124.907 Y93.000 E3.94168
G1 X124.786 Y92.707 E3.95794
G1 X124.786 Y89.686 E4.11298
G1 X125.314 Y89.686 E4.14011
G1 X125.314 Y106.966 E5.02675
G1 X125.247 Y107.646 E5.06180
G1 X125.059 Y108.267 E5.09510
G1 X124.753 Y108.840 E5.12840
G1 X124.341 Y109.341 E5.16170
G1 X123.840 Y109.753 E5.19501
G1 X123.267 Y110.059 E5.22831
G1 X122.646 Y110.247 E5.26161
G1 X122.000 Y110.311 E5.29492
G1 X121.354 Y110.247 E5.32822
G1 X120.733 Y110.059 E5.36153
G1 X120.160 Y109.753 E5.39483
G1 X119.659 Y109.341 E5.42813
G1 X119.247 Y108.840 E5.46143
G1 X118.941 Y108.267 E5.49474
G1 X118.753 Y107.646 E5.52804
G1 X118.692 Y107.035 E5.55956
G1 X118.229 Y106.989 F15000.000
G1 X118.229 Y89.229 F600.000 E6.47082
G1 X119.671 Y89.229 E6.54485
G1 X119.671 Y92.798 E6.72800
G1 X119.588 Y93.000 E6.73921
G1 X120.294 Y94.706 E6.83394
G1 X122.000 Y95.412 E6.92866
G1 X123.706 Y94.706 E7.02338
G1 X124.412 Y93.000 E7.11811
G1 X124.329 Y92.798 E7.12932
G1 X124.329 Y89.229 E7.31247
G1 X125.771 Y89.229 E7.38651
G1 X125.771 Y106.989 E8.29776
G1 X125.698 Y107.736 E8.33626
G1 X125.483 Y108.443 E8.37418
G1 X125.135 Y109.095 E8.41211
G1 X124.666 Y109.666 E8.45003
G1 X124.095 Y110.135 E8.48795
G1 X123.443 Y110.483 E8.52587
G1 X122.736 Y110.698 E8.56380
G1 X122.000 Y110.770 E8.60172
G1 X121.264 Y110.698 E8.63964
G1 X120.557 Y110.483 E8.67757
G1 X119.905 Y110.135 E8.71549
G1 X119.334 Y109.666 E8.75341
G1 X118.865 Y109.095 E8.79133
G1 X118.517 Y108.443 E8.82926
G1 X118.302 Y107.736 E8.86718
G1 X118.235 Y107.057 E8.90217
G1 X118.617 Y106.747 F15000.000
G1 F3000.000 E6.50217
G92 E0
G1 X119.474 Y104.878 F15000.000
G1 F3000.000 E2.40000
G1 X119.850 Y104.577 F960.000 E2.42587
G1 X119.474 Y104.201 E2.45442
G1 X120.097 Y104.148 E2.48804
G1 X119.474 Y103.524 E2.53541
G1 X119.474 Y102.847 E2.57179
G1 X120.553 Y103.926 E2.65377
G1 X121.230 Y103.926 E2.69014
G1 X119.474 Y102.170 E2.82357
G1 X119.474 Y101.493 E2.85994
G1 X121.907 Y103.926 E3.04481
G1 X122.584 Y103.926 E3.08118
G1 X119.474 Y100.816 E3.31749
G1 X119.474 Y100.139 E3.35386
G1 X123.261 Y103.926 E3.64161
G1 X124.526 Y103.838 F15000.000
G1 X119.474 Y98.785 F960.000 E4.02552
G1 X119.474 Y99.462 E4.06190
G1 X124.526 Y104.514 E4.44581
G1 X124.526 Y103.161 F15000.000
G1 X119.474 Y98.109 F960.000 E4.82971
G1 X119.474 Y97.432 E4.86609
G1 X124.526 Y102.484 E5.25000
G1 X124.526 Y101.807 E5.28637
G1 X119.474 Y96.755 E5.67028
G1 X119.474 Y96.078 E5.70665
G1 X124.526 Y101.130 E6.09056
G1 X124.526 Y100.453 E6.12694
G1 X120.009 Y95.935 E6.47022
G1 X121.164 Y96.414 E6.53743
G1 X124.526 Y99.776 E6.79290
G1 X124.526 Y99.099 E6.82927
G1 X122.132 Y96.705 E7.01116
G1 X122.611 Y96.507 E7.03900
G1 X124.526 Y98.422 E7.18451
G1 X124.526 Y97.745 E7.22089
G1 X123.090 Y96.309 E7.33002
G1 X123.569 Y96.110 E7.35786
G1 X124.526 Y97.068 E7.43063
G1 X124.526 Y96.391 E7.46700
G1 X124.047 Y95.912 E7.50339
G1 X124.526 Y95.714 E7.53123
G1 F3000.000 E5.13123
G92 E0
G1 X119.471 Y105.237 F15000.000
G1 F3000.000 E2.40000
G1 X119.597 Y105.021 F600.000 E2.40680
G1 X119.471 Y104.895 E2.41161
G1 X119.722 Y104.804 E2.41885
G1 F3000.000 E0.01885
G92 E0
G1 X119.014 Y106.943 F15000.000
G1 F3000.000 E2.40000
G1 X119.139 Y106.727 F600.000 E2.40680
G1 X119.014 Y106.601 E2.41161
G1 X119.265 Y106.510 E2.41886
G1 X119.036 Y107.171 F15000.000
G1 X119.036 Y107.171 F600.000 E2.41886
G1 F3000.000 E0.01886
G92 E0
G1 X119.880 Y108.857 F15000.000
G1 F3000.000 E2.40000
G1 X119.880 Y108.856 F600.000 E2.40005
G1 X120.378 Y109.497 F15000.000
G1 X120.378 Y109.497 F600.000 E2.40006
G1 X120.598 Y109.614 F15000.000
G1 X120.598 Y109.614 F600.000 E2.40007
G1 X121.410 Y109.764 F15000.000
G1 X122.590 Y109.764 F600.000 E2.51076
G1 X123.357 Y109.639 F15000.000
G1 X123.357 Y109.638 F600.000 E2.51077
G1 X123.557 Y109.532 F15000.000
G1 X123.557 Y109.531 F600.000 E2.51077
G1 X124.120 Y108.857 F15000.000
G1 X124.434 Y108.422 F600.000 E2.54271
G1 X124.394 Y108.382 E2.54607
G1 X124.668 Y107.907 E2.57870
G1 X124.929 Y107.156 F15000.000
G1 X124.929 Y107.155 F600.000 E2.57871
G1 X124.986 Y106.943 F15000.000
G1 X124.986 Y106.442 F600.000 E2.59863
G1 X124.529 Y105.237 F15000.000
G1 X124.529 Y104.737 F600.000 E2.61855
G1 F3000.000 E0.21855
G92 E0
G1 X124.633 Y94.521 F15000.000
G1 F3000.000 E2.40000
G1 X124.750 Y94.236 F600.000 E2.40982
G1 X124.986 Y94.472 E2.42046
G1 X124.986 Y94.070 E2.43329
G1 X124.868 Y93.952 E2.43861
G1 X124.986 Y93.668 E2.44843
G1 F3000.000 E0.04843
G92 E0
G1 X119.014 Y94.591 F15000.000
G1 F3000.000 E2.40000
G1 X119.341 Y94.456 F600.000 E2.41294
G1 X119.014 Y94.129 E2.42987
G1 X119.014 Y93.668 E2.44677
G1 F3000.000 E0.04677
G92 E0
G1 X134.680 Y104.714 F15000.000
G1 F3000.000 E2.40000
G1 X137.320 Y104.714 F600.000 E2.53541
G1 X138.639 Y107.000 E2.67083
G1 X137.320 Y109.286 E2.80624
G1 X134.680 Y109.286 E2.94165
G1 X133.361 Y107.000 E3.07707
G1 X134.646 Y104.774 E3.20896
G1 X134.944 Y105.171 F15000.000
G1 X137.056 Y105.171 F600.000 E3.31730
G1 X138.007 Y106.819 E3.41491
G1 X138.111 Y107.000 E3.42563
G1 X137.056 Y108.829 E3.53397
G1 X134.944 Y108.829 E3.64230
G1 X133.889 Y107.000 E3.75063
G1 X134.910 Y105.231 E3.85545
G1 X135.024 Y104.721 F15000.000
G1 X134.417 Y104.257
G1 X133.306 Y106.181 F600.000 E3.96939
G1 X133.143 Y106.137 E3.97807
G1 X133.143 Y94.900 E4.55460
G1 X133.367 Y94.856 E4.56633
G1 X133.595 Y95.405 E4.59685
G1 X136.000 Y96.402 E4.73043
G1 X138.405 Y95.405 E4.86401
G1 X138.633 Y94.856 E4.89453
G1 X138.857 Y94.900 E4.90627
G1 X138.857 Y106.137 E5.48279
G1 X138.694 Y106.181 E5.49147
G1 X137.583 Y104.257 E5.60542
G1 X134.485 Y104.257 E5.76439
G1 F3000.000 E3.36439
G92 E0
G1 X132.686 Y106.966 F15000.000
G1 F3000.000 E2.40000
G1 X132.686 Y89.686 F600.000 E3.28665
G1 X133.214 Y89.686 E3.31378
G1 X133.214 Y92.707 E3.46881
G1 X133.093 Y93.000 E3.48507
G1 X133.945 Y95.055 E3.59922
G1 X136.000 Y95.907 E3.71338
