; generated by Slic3r 0.9.10-dev on 2013-05-17 at 13:34:37

; H-PLA-03-025-1

; layer_height = 0.25
; perimeters = 3
; top_solid_layers = 4
; bottom_solid_layers = 3
; fill_density = 0.2
; perimeter_speed = 20
; infill_speed = 32
; travel_speed = 250
; nozzle_diameter = 0.3
; filament_diameter = 1.75
; extrusion_multiplier = 1.0
; perimeters extrusion width = 0.32mm
; infill extrusion width = 0.32mm
; solid infill extrusion width = 0.32mm
; top infill extrusion width = 0.32mm
; first layer extrusion width = 0.50mm

G21 ; set units to millimeters
M107
M190 S57 ; wait for bed temperature to be reached
M104 S200 ; set temperature
G28 X0 Y0
G1 X80 Y80 F12000
G28 Z0
G1 Z0.25 F200
G1 X15 Y20 F12000
M109 S200 ; wait for temperature to be reached
G90 ; use absolute coordinates
G92 E0
M82 ; use absolute distances for extrusion
G1 F2220.000 E-1.75000
G92 E0
G1 Z0.300 F15000.000
G1 X67.020 Y69.357
G1 F2220.000 E1.75000
G1 X67.800 Y68.697 F600.000 E1.80825
G1 X68.670 Y68.167 E1.86633
G1 X70.760 Y67.107 E1.99993
G1 X71.690 Y66.727 E2.05720
G1 X72.660 Y66.487 E2.11417
G1 X74.970 Y66.117 E2.24754
G1 X75.990 Y66.037 E2.30586
G1 X91.500 Y66.037 E3.19008
G1 X92.760 Y66.167 E3.26230
G1 X93.970 Y66.527 E3.33427
G1 X95.090 Y67.127 E3.40670
G1 X96.070 Y67.927 E3.47882
G1 X96.870 Y68.907 E3.55094
G1 X97.470 Y70.027 E3.62338
G1 X97.830 Y71.237 E3.69535
G1 X97.960 Y72.497 E3.76756
G1 X97.960 Y87.497 E4.62270
G1 X97.830 Y88.757 E4.69492
G1 X97.470 Y89.967 E4.76689
G1 X96.870 Y91.087 E4.83932
G1 X96.070 Y92.067 E4.91144
G1 X95.090 Y92.867 E4.98356
G1 X93.970 Y93.467 E5.05600
G1 X92.760 Y93.827 E5.12797
G1 X91.500 Y93.957 E5.20018
G1 X75.990 Y93.957 E6.08440
G1 X74.970 Y93.877 E6.14273
G1 X72.660 Y93.507 E6.27610
G1 X71.690 Y93.267 E6.33307
G1 X70.760 Y92.887 E6.39034
G1 X68.670 Y91.827 E6.52394
G1 X67.800 Y91.297 E6.58201
G1 X67.020 Y90.637 E6.64027
G1 X65.360 Y88.977 E6.77410
G1 X64.710 Y88.207 E6.83155
G1 X64.180 Y87.347 E6.88914
G1 X63.110 Y85.257 E7.02299
G1 X62.720 Y84.307 E7.08154
G1 X62.480 Y83.307 E7.14017
G1 X62.120 Y80.987 E7.27401
G1 X62.040 Y79.997 E7.33064
G1 X62.120 Y79.007 E7.38726
G1 X62.480 Y76.687 E7.52110
G1 X62.720 Y75.687 E7.57973
G1 X63.110 Y74.737 E7.63828
G1 X64.180 Y72.647 E7.77214
G1 X64.710 Y71.787 E7.82973
G1 X65.360 Y71.017 E7.88717
G1 X66.972 Y69.405 E8.01710
G1 F2220.000 E6.26710
G92 E0
G1 X72.272 Y74.868 F15000.000
G1 F2220.000 E1.75000
G1 X74.040 Y73.967 F600.000 E1.86314
G1 X76.090 Y73.643 E1.98147
G1 X90.357 Y73.643 E2.79484
G1 X90.357 Y75.407 E2.89544
G1 X78.739 Y75.407 E3.55779
G1 X78.680 Y75.358 E3.56218
G1 X76.931 Y74.721 E3.66831
G1 X75.069 Y74.721 E3.77443
G1 X73.320 Y75.358 E3.88056
G1 X71.894 Y76.554 E3.98669
G1 X70.963 Y78.167 E4.09282
G1 X70.640 Y80.000 E4.19896
G1 X70.963 Y81.833 E4.30509
G1 X71.894 Y83.446 E4.41122
G1 X73.320 Y84.642 E4.51735
G1 X75.069 Y85.279 E4.62348
G1 X76.931 Y85.279 E4.72961
G1 X78.680 Y84.642 E4.83574
G1 X78.739 Y84.593 E4.84013
G1 X90.357 Y84.593 E5.50247
G1 X90.357 Y86.357 E5.60307
G1 X76.090 Y86.357 E6.41644
G1 X74.040 Y86.033 E6.53477
G1 X72.272 Y85.132 E6.64791
G1 X70.868 Y83.728 E6.76105
G1 X69.967 Y81.960 E6.87419
G1 X69.657 Y80.000 E6.98733
G1 X69.967 Y78.040 E7.10046
G1 X70.868 Y76.272 E7.21360
G1 X72.223 Y74.917 E7.32283
G1 X72.000 Y74.494 F15000.000
G1 X73.897 Y73.527 F600.000 E7.44422
G1 X76.054 Y73.186 E7.56873
G1 X90.814 Y73.186 E8.41021
G1 X90.814 Y75.864 E8.56293
G1 X78.573 Y75.864 E9.26082
G1 X78.448 Y75.760 E9.27010
G1 X76.850 Y75.178 E9.36704
G1 X75.150 Y75.178 E9.46397
G1 X73.552 Y75.760 E9.56092
G1 X72.249 Y76.853 E9.65786
G1 X71.399 Y78.325 E9.75480
G1 X71.104 Y80.000 E9.85174
G1 X71.399 Y81.675 E9.94868
G1 X72.249 Y83.147 E10.04562
G1 X73.552 Y84.240 E10.14256
G1 X75.150 Y84.822 E10.23950
G1 X76.850 Y84.822 E10.33644
G1 X78.448 Y84.240 E10.43338
G1 X78.573 Y84.136 E10.44266
G1 X90.814 Y84.136 E11.14055
G1 X90.814 Y86.814 E11.29326
G1 X76.054 Y86.814 E12.13475
G1 X73.897 Y86.473 E12.25926
G1 X72.000 Y85.506 E12.38065
G1 X70.494 Y84.000 E12.50204
G1 X69.527 Y82.103 E12.62343
G1 X69.194 Y80.000 E12.74482
G1 X69.527 Y77.897 E12.86622
G1 X70.494 Y76.000 E12.98761
G1 X71.951 Y74.542 E13.10509
G1 X71.728 Y74.120 F15000.000
G1 X73.754 Y73.087 F600.000 E13.23474
G1 X76.018 Y72.729 E13.36542
G1 X91.271 Y72.729 E14.23502
G1 X91.271 Y76.321 E14.43985
G1 X78.406 Y76.321 E15.17328
G1 X78.216 Y76.162 E15.18744
G1 X76.770 Y75.635 E15.27520
G1 X75.230 Y75.635 E15.36295
G1 X73.784 Y76.162 E15.45070
G1 X72.605 Y77.151 E15.53845
G1 X71.835 Y78.484 E15.62620
G1 X71.568 Y80.000 E15.71395
G1 X71.835 Y81.516 E15.80170
G1 X72.605 Y82.849 E15.88946
G1 X73.784 Y83.838 E15.97721
G1 X75.230 Y84.365 E16.06496
G1 X76.770 Y84.365 E16.15271
G1 X78.216 Y83.838 E16.24046
G1 X78.406 Y83.679 E16.25463
G1 X91.271 Y83.679 E16.98806
G1 X91.271 Y87.271 E17.19289
G1 X76.018 Y87.271 E18.06248
G1 X73.754 Y86.913 E18.19317
G1 X71.728 Y85.880 E18.32281
G1 X70.120 Y84.272 E18.45246
G1 X69.087 Y82.246 E18.58211
G1 X68.731 Y80.000 E18.71175
G1 X69.087 Y77.754 E18.84140
G1 X70.120 Y75.728 E18.97105
G1 X71.679 Y74.168 E19.09678
G1 X72.135 Y74.327 F15000.000
G1 F2220.000 E17.34678
G92 E0
G1 X90.026 Y84.924 F15000.000
G1 F2220.000 E1.75000
G1 X90.026 Y86.026 F960.000 E1.81299
G1 X76.792 Y86.026 E2.56948
G1 X76.735 Y85.703 E2.58824
G1 X78.874 Y84.924 E2.71839
G1 X89.957 Y84.924 E3.35192
G1 F2220.000 E1.60192
G92 E0
G1 X90.026 Y73.974 F15000.000
G1 F2220.000 E1.75000
G1 X90.026 Y75.076 F960.000 E1.81299
G1 X78.875 Y75.076 E2.45043
G1 X76.735 Y74.297 E2.58059
G1 X76.792 Y73.974 E2.59935
G1 X89.957 Y73.974 E3.35191
G1 F2220.000 E1.60191
G92 E0
G1 X76.250 Y74.121 F15000.000
G1 F2220.000 E1.75000
G1 X76.372 Y74.243 F600.000 E1.75980
G1 X75.723 Y74.243 F15000.000
G1 X75.673 Y74.193 F600.000 E1.76379
G1 X74.553 Y74.371 F15000.000
G1 X74.574 Y74.392 F600.000 E1.76553
G1 X74.038 Y74.505 F15000.000
G1 X74.099 Y74.565 F600.000 E1.77038
G1 X73.623 Y74.738 F15000.000
G1 X73.609 Y74.724 F600.000 E1.77153
G1 X72.749 Y75.162 F15000.000
G1 X72.776 Y75.189 F600.000 E1.77373
G1 X72.377 Y75.439 F15000.000
G1 X72.423 Y75.486 F600.000 E1.77745
G1 X72.070 Y75.782 F15000.000
G1 X72.053 Y75.764 F600.000 E1.77888
G1 X71.416 Y76.425 F15000.000
G1 X71.404 Y76.413 F600.000 E1.77986
G1 X71.179 Y76.836 F15000.000
G1 X71.138 Y76.796 F600.000 E1.78312
G1 X70.941 Y77.248 F15000.000
G1 X70.919 Y77.226 F600.000 E1.78488
G1 X70.704 Y77.659 F15000.000
G1 X70.700 Y77.656 F600.000 E1.78516
G1 X70.490 Y78.094 F15000.000
G1 X70.481 Y78.086 F600.000 E1.78586
G1 X70.393 Y78.646 F15000.000
G1 X70.361 Y78.614 F600.000 E1.78842
G1 X70.295 Y79.198 F15000.000
G1 X70.272 Y79.174 F600.000 E1.79030
G1 X70.198 Y79.749 F15000.000
G1 X70.183 Y79.734 F600.000 E1.79148
G1 X70.230 Y80.430 F15000.000
G1 X70.206 Y80.406 F600.000 E1.79342
G1 X70.369 Y81.217 F15000.000
G1 X70.328 Y81.177 F600.000 E1.79671
G1 F2220.000 E0.04671
G92 E0
G1 X71.399 Y83.546 F15000.000
G1 F2220.000 E1.75000
G1 X71.222 Y83.369 F600.000 E1.76428
G1 F2220.000 E0.01428
G92 E0
G1 X72.631 Y84.778 F15000.000
G1 F2220.000 E1.75000
G1 X72.078 Y84.225 F600.000 E1.79457
G1 F2220.000 E0.04457
G92 E0
G1 X73.954 Y85.452 F15000.000
G1 F2220.000 E1.75000
G1 X73.845 Y85.342 F600.000 E1.75884
G1 F2220.000 E0.00884
G92 E0
G1 X75.594 Y85.794 F15000.000
G1 F2220.000 E1.75000
G1 X75.557 Y85.757 F600.000 E1.75300
G1 X76.206 Y85.757 E1.79014
G1 X76.328 Y85.879 E1.79997
M104 S185 ; set temperature
G1 F2220.000 E0.04997
G92 E0
G1 Z0.550 F15000.000
G1 X76.061 Y86.721
G1 F2220.000 E1.75000
G1 X73.926 Y86.382 F1200.000 E1.82005
G1 X72.055 Y85.429 E1.88809
G1 X70.571 Y83.945 E1.95613
G1 X69.618 Y82.074 E2.02417
G1 X69.289 Y80.000 E2.09221
G1 X69.618 Y77.926 E2.16025
G1 X70.571 Y76.055 E2.22829
G1 X72.055 Y74.571 E2.29633
G1 X73.926 Y73.618 E2.36437
G1 X76.061 Y73.279 E2.43442
G1 X90.721 Y73.279 E2.90947
G1 X90.721 Y75.771 E2.99019
G1 X78.607 Y75.771 E3.38275
G1 X78.496 Y75.677 E3.38745
G1 X76.867 Y75.084 E3.44363
G1 X75.133 Y75.084 E3.49980
G1 X73.504 Y75.677 E3.55598
G1 X72.176 Y76.792 E3.61215
G1 X71.310 Y78.293 E3.66833
G1 X71.009 Y80.000 E3.72451
G1 X71.275 Y81.511 E3.77422
G1 X71.310 Y81.707 E3.78068
G1 X72.176 Y83.208 E3.83686
G1 X73.504 Y84.323 E3.89304
G1 X75.133 Y84.916 E3.94921
G1 X76.867 Y84.916 E4.00539
G1 X78.496 Y84.323 E4.06156
G1 X78.607 Y84.229 E4.06627
G1 X90.721 Y84.229 E4.45882
G1 X90.721 Y86.721 E4.53955
G1 X76.108 Y86.721 E5.01307
G1 X76.037 Y87.032 F15000.000
G1 X73.829 Y86.683 F1200.000 E5.08552
G1 X71.870 Y85.685 E5.15676
G1 X70.315 Y84.130 E5.22800
G1 X69.317 Y82.171 E5.29924
G1 X68.974 Y80.000 E5.37048
G1 X69.317 Y77.829 E5.44172
G1 X70.315 Y75.870 E5.51296
G1 X71.870 Y74.315 E5.58420
G1 X73.829 Y73.317 E5.65544
G1 X76.037 Y72.968 E5.72789
G1 X91.032 Y72.968 E6.21383
G1 X91.032 Y76.082 E6.31477
G1 X78.493 Y76.082 E6.72110
G1 X78.337 Y75.951 E6.72770
G1 X76.812 Y75.396 E6.78031
G1 X75.188 Y75.396 E6.83293
G1 X73.663 Y75.951 E6.88554
G1 X72.419 Y76.995 E6.93815
G1 X71.607 Y78.401 E6.99077
G1 X71.325 Y80.000 E7.04338
G1 X71.607 Y81.599 E7.09599
G1 X72.419 Y83.005 E7.14861
G1 X73.663 Y84.049 E7.20122
G1 X75.188 Y84.604 E7.25383
G1 X76.812 Y84.604 E7.30645
G1 X78.337 Y84.049 E7.35906
G1 X78.493 Y83.918 E7.36566
G1 X91.032 Y83.918 E7.77199
G1 X91.032 Y87.032 E7.87293
G1 X76.084 Y87.032 E8.35735
G1 X76.012 Y87.344 F15000.000
G1 X73.731 Y86.983 F1200.000 E8.43220
G1 X71.684 Y85.940 E8.50664
G1 X70.060 Y84.316 E8.58108
G1 X69.017 Y82.269 E8.65552
G1 X68.658 Y80.000 E8.72996
G1 X69.017 Y77.731 E8.80440
G1 X70.060 Y75.684 E8.87884
G1 X71.684 Y74.060 E8.95328
G1 X73.731 Y73.017 E9.02772
G1 X76.012 Y72.656 E9.10256
G1 X91.344 Y72.656 E9.59941
G1 X91.344 Y76.394 E9.72055
G1 X78.380 Y76.394 E10.14066
G1 X78.179 Y76.226 E10.14916
G1 X76.757 Y75.708 E10.19821
G1 X75.243 Y75.708 E10.24726
G1 X73.821 Y76.226 E10.29631
G1 X72.661 Y77.199 E10.34536
G1 X71.905 Y78.509 E10.39441
G1 X71.642 Y80.000 E10.44346
G1 X71.905 Y81.491 E10.49251
G1 X72.661 Y82.801 E10.54156
G1 X73.821 Y83.774 E10.59061
G1 X75.243 Y84.292 E10.63966
G1 X76.757 Y84.292 E10.68871
G1 X78.179 Y83.774 E10.73776
G1 X78.380 Y83.606 E10.74625
G1 X91.344 Y83.606 E11.16637
G1 X91.344 Y87.344 E11.28751
G1 X76.059 Y87.344 E11.78283
G1 X75.885 Y87.059 F15000.000
G1 F2220.000 E10.03283
G92 E0
G1 X69.705 Y78.816 F15000.000
G1 F2220.000 E1.75000
G1 X74.816 Y73.705 F1920.000 E1.98499
G1 X74.290 Y73.789 E2.00229
G1 X69.789 Y78.290 E2.20928
G1 X70.039 Y77.598 E2.23321
G1 X73.598 Y74.039 E2.39688
G1 X72.696 Y74.498 E2.42979
G1 X70.498 Y76.696 E2.53084
G1 X71.565 Y77.399 F15000.000
G1 X69.622 Y79.341 F1920.000 E2.62018
G1 X69.539 Y79.867 E2.63749
G1 X71.073 Y78.333 E2.70803
G1 X70.978 Y78.870 E2.72577
G1 X69.563 Y80.285 E2.79085
G1 X69.624 Y80.667 E2.80342
G1 X70.884 Y79.407 E2.86137
G1 X70.789 Y79.944 E2.87910
G1 X69.684 Y81.049 E2.92991
G1 X69.745 Y81.431 E2.94248
G1 X70.839 Y80.337 E2.99279
G1 X70.905 Y80.713 E3.00521
G1 X69.805 Y81.813 E3.05578
G1 X69.910 Y82.150 E3.06727
G1 X70.971 Y81.089 E3.11606
G1 X71.038 Y81.465 E3.12848
G1 X70.060 Y82.443 E3.17345
G1 X70.209 Y82.737 E3.18415
G1 X71.118 Y81.827 E3.22595
G1 X71.280 Y82.108 E3.23648
G1 X70.358 Y83.030 E3.27887
G1 X70.508 Y83.323 E3.28957
G1 X71.442 Y82.388 E3.33254
G1 X71.604 Y82.669 E3.34307
G1 X70.657 Y83.616 E3.38661
G1 X70.830 Y83.885 E3.39702
G1 X71.766 Y82.949 E3.44003
G1 X71.928 Y83.230 E3.45056
G1 X71.052 Y84.106 E3.49085
G1 X71.273 Y84.327 E3.50102
G1 X72.133 Y83.467 E3.54057
G1 X72.374 Y83.669 E3.55078
G1 X71.494 Y84.548 E3.59122
G1 X71.715 Y84.769 E3.60140
G1 X72.614 Y83.871 E3.64273
G1 X72.855 Y84.073 E3.65294
G1 X71.936 Y84.991 E3.69516
G1 X72.158 Y85.212 E3.70533
G1 X73.095 Y84.274 E3.74844
G1 X73.336 Y84.476 E3.75865
G1 X72.440 Y85.372 E3.79983
G1 X72.733 Y85.521 E3.81052
G1 X73.641 Y84.613 E3.85228
G1 X73.966 Y84.731 E3.86350
G1 X73.027 Y85.670 E3.90669
G1 X73.320 Y85.820 E3.91739
G1 X74.290 Y84.849 E3.96202
G1 X74.614 Y84.967 E3.97324
G1 X73.613 Y85.969 E4.01931
G1 X73.906 Y86.118 E4.03001
G1 X74.939 Y85.085 E4.07751
G1 X75.325 Y85.142 E4.09020
G1 X74.260 Y86.207 E4.13917
G1 X74.642 Y86.267 E4.15175
G1 X75.767 Y85.142 E4.20350
G1 X76.210 Y85.142 E4.21789
G1 X75.024 Y86.328 E4.27242
G1 X75.406 Y86.388 E4.28500
G1 X76.652 Y85.142 E4.34231
G1 X77.202 Y85.034 E4.36054
G1 X75.788 Y86.448 E4.42559
G1 X76.184 Y86.495 E4.43856
G1 X77.898 Y84.781 E4.51738
G1 X78.594 Y84.528 E4.54145
G1 X76.627 Y86.495 E4.63190
G1 X77.069 Y86.495 E4.64629
G1 X79.108 Y84.455 E4.74006
G1 X79.551 Y84.455 E4.75445
G1 X77.511 Y86.495 E4.84822
G1 X77.954 Y86.495 E4.86261
G1 X79.993 Y84.455 E4.95638
G1 X80.435 Y84.455 E4.97077
G1 X78.396 Y86.495 E5.06454
G1 X78.839 Y86.495 E5.07893
G1 X80.878 Y84.455 E5.17271
G1 X81.320 Y84.455 E5.18709
G1 X79.281 Y86.495 E5.28087
G1 X79.724 Y86.495 E5.29525
G1 X81.763 Y84.455 E5.38903
G1 X82.205 Y84.455 E5.40341
G1 X80.166 Y86.495 E5.49719
G1 X80.608 Y86.495 E5.51157
G1 X82.648 Y84.455 E5.60535
G1 X83.090 Y84.455 E5.61973
G1 X81.051 Y86.495 E5.71351
G1 X81.493 Y86.495 E5.72790
G1 X83.532 Y84.455 E5.82167
G1 X83.975 Y84.455 E5.83606
G1 X81.936 Y86.495 E5.92983
G1 X82.378 Y86.495 E5.94422
G1 X84.417 Y84.455 E6.03799
G1 X84.860 Y84.455 E6.05238
G1 X82.820 Y86.495 E6.14615
G1 X83.263 Y86.495 E6.16054
G1 X85.302 Y84.455 E6.25431
G1 X85.745 Y84.455 E6.26870
G1 X83.705 Y86.495 E6.36247
G1 X84.148 Y86.495 E6.37686
G1 X86.187 Y84.455 E6.47063
G1 X86.629 Y84.455 E6.48502
G1 X84.590 Y86.495 E6.57879
G1 X85.033 Y86.495 E6.59318
G1 X87.072 Y84.455 E6.68696
G1 X87.514 Y84.455 E6.70134
G1 X85.475 Y86.495 E6.79512
G1 X85.917 Y86.495 E6.80950
G1 X87.957 Y84.455 E6.90328
G1 X88.399 Y84.455 E6.91766
G1 X86.360 Y86.495 E7.01144
G1 X86.802 Y86.495 E7.02582
G1 X88.842 Y84.455 E7.11960
G1 X89.284 Y84.455 E7.13398
G1 X87.245 Y86.495 E7.22776
G1 X87.687 Y86.495 E7.24215
G1 X89.726 Y84.455 E7.33592
G1 X90.169 Y84.455 E7.35031
G1 X88.130 Y86.495 E7.44408
G1 X88.572 Y86.495 E7.45847
G1 X90.495 Y84.572 E7.54688
G1 X90.495 Y85.014 E7.56126
G1 X89.014 Y86.495 E7.62933
G1 X89.457 Y86.495 E7.64371
G1 X90.495 Y85.457 E7.69144
G1 X90.495 Y85.899 E7.70582
G1 X89.899 Y86.495 E7.73320
G1 X90.342 Y86.495 E7.74758
G1 X90.495 Y86.342 E7.75461
G1 F2220.000 E6.00461
G92 E0
G1 X90.495 Y75.281 F15000.000
G1 F2220.000 E1.75000
G1 X90.231 Y75.545 F1920.000 E1.76212
G1 X89.789 Y75.545 E1.77650
G1 X90.495 Y74.839 E1.80897
G1 X90.495 Y74.396 E1.82335
G1 X89.346 Y75.545 E1.87616
G1 X88.904 Y75.545 E1.89055
G1 X90.495 Y73.954 E1.96370
G1 X90.495 Y73.511 E1.97809
G1 X88.461 Y75.545 E2.07159
G1 X88.019 Y75.545 E2.08597
G1 X90.058 Y73.505 E2.17975
G1 X89.616 Y73.505 E2.19413
G1 X87.577 Y75.545 E2.28791
G1 X87.134 Y75.545 E2.30229
G1 X89.173 Y73.505 E2.39607
G1 X88.731 Y73.505 E2.41045
G1 X86.692 Y75.545 E2.50423
G1 X86.249 Y75.545 E2.51861
G1 X88.289 Y73.505 E2.61239
G1 X87.846 Y73.505 E2.62678
G1 X85.807 Y75.545 E2.72055
G1 X85.364 Y75.545 E2.73494
G1 X87.404 Y73.505 E2.82871
G1 X86.961 Y73.505 E2.84310
G1 X84.922 Y75.545 E2.93687
G1 X84.480 Y75.545 E2.95126
G1 X86.519 Y73.505 E3.04503
G1 X86.076 Y73.505 E3.05942
G1 X84.037 Y75.545 E3.15319
G1 X83.595 Y75.545 E3.16758
G1 X85.634 Y73.505 E3.26135
G1 X85.192 Y73.505 E3.27574
G1 X83.152 Y75.545 E3.36951
G1 X82.710 Y75.545 E3.38390
G1 X84.749 Y73.505 E3.47768
G1 X84.307 Y73.505 E3.49206
G1 X82.267 Y75.545 E3.58584
G1 X81.825 Y75.545 E3.60022
G1 X83.864 Y73.505 E3.69400
G1 X83.422 Y73.505 E3.70838
G1 X81.383 Y75.545 E3.80216
G1 X80.940 Y75.545 E3.81654
G1 X82.979 Y73.505 E3.91032
G1 X82.537 Y73.505 E3.92470
G1 X80.498 Y75.545 E4.01848
G1 X80.055 Y75.545 E4.03286
G1 X82.095 Y73.505 E4.12664
G1 X81.652 Y73.505 E4.14103
G1 X79.613 Y75.545 E4.23480
G1 X79.170 Y75.545 E4.24919
G1 X81.210 Y73.505 E4.34296
G1 X80.767 Y73.505 E4.35735
G1 X78.728 Y75.545 E4.45112
G1 X78.421 Y75.410 E4.46204
G1 X80.325 Y73.505 E4.54960
G1 X79.882 Y73.505 E4.56399
G1 X78.096 Y75.291 E4.64612
G1 X77.772 Y75.173 E4.65734
G1 X79.440 Y73.505 E4.73405
G1 X78.998 Y73.505 E4.74843
G1 X77.448 Y75.055 E4.81971
G1 X77.123 Y74.937 E4.83093
G1 X78.555 Y73.505 E4.89678
G1 X78.113 Y73.505 E4.91116
G1 X76.760 Y74.858 E4.97338
G1 X76.317 Y74.858 E4.98777
G1 X77.670 Y73.505 E5.04999
G1 X77.228 Y73.505 E5.06438
