; generated by Slic3r 0.9.9-dev on 2013-07-21 at 21:05:48

; H-PLA-03-025-1g

; layer_height = 0.25
; perimeters = 2
; top_solid_layers = 4
; bottom_solid_layers = 3
; fill_density = 0.4
; perimeter_speed = 20
; infill_speed = 32
; travel_speed = 250
; scale = 1
; nozzle_diameter = 0.3
; filament_diameter = 1.75
; extrusion_multiplier = 1.0
; perimeters extrusion width = 0.30mm
; infill extrusion width = 0.35mm
; first layer extrusion width = 0.50mm

M190 S57 ; wait for bed temperature to be reached
M104 S200 ; set temperature
M106 S120
G28
G1 Z0.25 F200
G1 X15 Y20 F12000
M109 S200 ; wait for temperature to be reached
G90 ; use absolute coordinates
G21 ; set units to millimeters
G92 E0
M82 ; use absolute distances for extrusion
M106 S76
G1 F3600.000 E-2.20000
G92 E0
G1 Z0.300 F15000.000
G1 X67.170 Y69.560
G1 X67.285 Y69.463 F3600.000 E2.20000
G1 X67.940 Y68.910 F600.000 E2.24890
G1 X68.810 Y68.380 E2.30697
G1 X70.830 Y67.350 E2.43624
G1 X71.760 Y66.960 E2.49373
G1 X72.740 Y66.720 E2.55125
G1 X74.990 Y66.360 E2.68115
G1 X76.010 Y66.280 E2.73948
G1 X91.240 Y66.280 E3.60774
G1 X92.500 Y66.410 E3.67995
G1 X93.710 Y66.770 E3.75192
G1 X94.830 Y67.370 E3.82435
G1 X95.810 Y68.170 E3.89648
G1 X96.610 Y69.150 E3.96860
G1 X97.210 Y70.270 E4.04103
G1 X97.570 Y71.480 E4.11300
G1 X97.700 Y72.740 E4.18522
G1 X97.700 Y87.240 E5.01185
G1 X97.570 Y88.500 E5.08407
G1 X97.210 Y89.710 E5.15604
G1 X96.610 Y90.830 E5.22847
G1 X95.810 Y91.810 E5.30059
G1 X94.830 Y92.610 E5.37271
G1 X93.710 Y93.210 E5.44515
G1 X92.500 Y93.570 E5.51712
G1 X91.240 Y93.700 E5.58933
G1 X76.010 Y93.700 E6.45759
G1 X75.020 Y93.620 E6.51421
G1 X72.770 Y93.270 E6.64402
G1 X71.770 Y93.030 E6.70265
G1 X70.830 Y92.640 E6.76067
G1 X68.810 Y91.610 E6.88994
G1 X67.940 Y91.080 E6.94801
G1 X67.170 Y90.430 E7.00546
G1 X65.560 Y88.820 E7.13526
G1 X64.910 Y88.050 E7.19271
G1 X64.380 Y87.180 E7.25079
G1 X63.350 Y85.160 E7.38005
G1 X62.960 Y84.220 E7.43807
G1 X62.720 Y83.230 E7.49615
G1 X62.370 Y80.990 E7.62540
G1 X62.290 Y79.990 E7.68259
G1 X62.370 Y78.990 E7.73978
G1 X62.720 Y76.760 E7.86847
G1 X62.960 Y75.770 E7.92654
G1 X63.350 Y74.830 E7.98456
G1 X64.380 Y72.810 E8.11383
G1 X64.910 Y71.940 E8.17190
G1 X65.560 Y71.170 E8.22935
G1 X67.122 Y69.608 E8.35524
G1 X67.170 Y69.560 E8.35915
G1 F3600.000 E6.15915
G92 E0
G1 X72.073 Y74.480 F15000.000
G1 X72.207 Y74.412 F3600.000 E2.20000
G1 X73.904 Y73.548 F600.000 E2.30854
G1 X76.056 Y73.207 E2.43276
G1 X90.793 Y73.207 E3.27293
G1 X90.793 Y75.843 E3.42319
G1 X78.581 Y75.843 E4.11941
G1 X78.459 Y75.741 E4.12846
G1 X76.854 Y75.157 E4.22583
G1 X75.146 Y75.157 E4.32320
G1 X73.541 Y75.741 E4.42058
G1 X72.233 Y76.839 E4.51795
G1 X71.379 Y78.318 E4.61532
G1 X71.082 Y80.000 E4.71269
G1 X71.379 Y81.682 E4.81007
G1 X72.233 Y83.161 E4.90744
G1 X73.541 Y84.259 E5.00481
G1 X75.146 Y84.843 E5.10218
G1 X76.854 Y84.843 E5.19955
G1 X78.459 Y84.259 E5.29693
G1 X78.581 Y84.157 E5.30598
G1 X90.793 Y84.157 E6.00219
G1 X90.793 Y86.793 E6.15246
G1 X76.056 Y86.793 E6.99263
G1 X73.904 Y86.452 E7.11684
G1 X72.012 Y85.488 E7.23785
G1 X70.512 Y83.988 E7.35885
G1 X69.548 Y82.096 E7.47986
G1 X69.216 Y80.000 E7.60086
G1 X69.548 Y77.904 E7.72187
G1 X70.512 Y76.012 E7.84287
G1 X71.754 Y74.770 E7.94303
G1 X72.073 Y74.480
G1 X71.801 Y74.106 F15000.000
G1 X73.761 Y73.108 F600.000 E8.06838
G1 X76.020 Y72.750 E8.19878
G1 X91.250 Y72.750 E9.06705
G1 X91.250 Y76.300 E9.26943
G1 X78.414 Y76.300 E10.00119
G1 X78.227 Y76.143 E10.01513
G1 X76.773 Y75.614 E10.10331
G1 X75.227 Y75.614 E10.19150
G1 X73.773 Y76.143 E10.27968
G1 X72.588 Y77.137 E10.36786
G1 X71.815 Y78.477 E10.45604
G1 X71.546 Y80.000 E10.54423
G1 X71.815 Y81.523 E10.63241
G1 X72.588 Y82.863 E10.72059
G1 X73.773 Y83.857 E10.80878
G1 X75.227 Y84.386 E10.89696
G1 X76.773 Y84.386 E10.98514
G1 X78.227 Y83.857 E11.07332
G1 X78.414 Y83.700 E11.08726
G1 X91.250 Y83.700 E11.81902
G1 X91.250 Y87.250 E12.02141
G1 X76.020 Y87.250 E12.88968
G1 X73.761 Y86.892 E13.02008
G1 X71.740 Y85.863 E13.14933
G1 X70.137 Y84.260 E13.27859
G1 X69.108 Y82.239 E13.40785
G1 X68.753 Y80.000 E13.53711
G1 X69.108 Y77.761 E13.66637
G1 X70.137 Y75.740 E13.79563
G1 X71.304 Y74.573 E13.88971
G1 X71.801 Y74.106
G1 X71.754 Y74.770 F3600.000 E11.68971
G92 E0
G1 X70.059 Y82.233 F15000.000
G1 X70.165 Y82.339 F3600.000 E2.20000
G1 X73.767 Y85.941 F960.000 E2.49448
G1 X74.723 Y86.242 F15000.000
G1 X72.129 Y83.647 F960.000 E2.70664
G1 X71.935 Y83.454 F15000.000
G1 X69.758 Y81.277 F960.000 E2.88465
G1 X69.635 Y80.498 E2.93025
G1 X71.080 Y81.943 E3.04844
G1 X70.940 Y81.147 E3.09517
G1 X69.549 Y79.756 E3.20894
G1 X69.638 Y79.190 E3.24207
G1 X70.800 Y80.351 E3.33704
G1 X70.836 Y79.732 E3.37290
G1 X69.728 Y78.624 E3.46352
G1 X69.818 Y78.058 E3.49665
G1 X70.935 Y79.175 E3.58798
G1 X71.033 Y78.618 E3.62070
G1 X70.002 Y77.587 E3.70495
G1 X70.224 Y77.153 E3.73313
G1 X71.193 Y78.123 E3.81241
G1 X71.433 Y77.707 E3.84016
G1 X70.445 Y76.719 E3.92096
G1 X70.666 Y76.284 E3.94914
G1 X71.673 Y77.291 E4.03147
G1 X71.913 Y76.876 E4.05922
G1 X70.958 Y75.921 E4.13728
G1 X71.286 Y75.593 E4.16408
G1 X72.216 Y76.523 E4.24013
G1 X72.573 Y76.224 E4.26704
G1 X71.614 Y75.265 E4.34544
G1 X71.942 Y74.938 E4.37224
G1 X72.929 Y75.925 E4.45299
G1 X73.286 Y75.626 E4.47990
G1 X72.312 Y74.652 E4.55952
G1 X72.746 Y74.431 E4.58770
G1 X73.708 Y75.392 E4.66631
G1 X74.188 Y75.217 E4.69589
G1 X73.181 Y74.210 E4.77829
G1 X73.615 Y73.988 E4.80647
G1 X74.669 Y75.042 E4.89266
G1 X75.150 Y74.868 E4.92224
G1 X74.094 Y73.812 E5.00855
G1 X74.660 Y73.722 E5.04168
G1 X75.783 Y74.845 E5.13350
G1 X76.438 Y74.845 E5.17140
G1 X75.226 Y73.633 E5.27055
G1 X75.792 Y73.543 E5.30368
G1 X77.102 Y74.853 E5.41081
G1 X78.133 Y75.228 E5.47423
G1 X76.423 Y73.519 E5.61404
G1 X77.079 Y73.519 E5.65194
G1 X79.091 Y75.531 E5.81652
G1 X79.747 Y75.531 E5.85443
G1 X77.734 Y73.519 E6.01901
G1 X78.390 Y73.519 E6.05692
G1 X80.403 Y75.531 E6.22150
G1 X81.058 Y75.531 E6.25940
G1 X79.045 Y73.519 E6.42399
G1 X79.701 Y73.519 E6.46189
G1 X81.714 Y75.531 E6.62647
G1 X82.369 Y75.531 E6.66438
G1 X80.357 Y73.519 E6.82896
G1 X81.012 Y73.519 E6.86687
G1 X83.025 Y75.531 E7.03145
G1 X83.681 Y75.531 E7.06936
G1 X81.668 Y73.519 E7.23394
G1 X82.323 Y73.519 E7.27184
G1 X84.336 Y75.531 E7.43643
G1 X84.992 Y75.531 E7.47433
G1 X82.979 Y73.519 E7.63891
G1 X83.634 Y73.519 E7.67682
G1 X85.647 Y75.531 E7.84140
G1 X86.303 Y75.531 E7.87931
G1 X84.290 Y73.519 E8.04389
G1 X84.946 Y73.519 E8.08179
G1 X86.958 Y75.531 E8.24638
G1 X87.614 Y75.531 E8.28428
G1 X85.601 Y73.519 E8.44886
G1 X86.257 Y73.519 E8.48677
G1 X88.270 Y75.531 E8.65135
G1 X88.925 Y75.531 E8.68926
G1 X86.912 Y73.519 E8.85384
G1 X87.568 Y73.519 E8.89174
G1 X89.581 Y75.531 E9.05633
G1 X90.236 Y75.531 E9.09423
G1 X88.224 Y73.519 E9.25881
G1 X88.879 Y73.519 E9.29672
G1 X90.481 Y75.121 E9.42773
G1 X90.481 Y74.465 E9.46564
G1 X89.535 Y73.519 E9.54304
G1 X90.190 Y73.519 E9.58095
G1 X90.481 Y73.810 E9.60474
G1 F3600.000 E7.40474
G92 E0
G1 X89.995 Y84.469 F15000.000
G1 X90.101 Y84.575 F3600.000 E2.20000
G1 X90.481 Y84.955 F960.000 E2.23107
G1 X90.481 Y85.610 E2.26897
G1 X89.340 Y84.469 E2.36232
G1 X88.684 Y84.469 E2.40023
G1 X90.481 Y86.266 E2.54718
G1 X90.041 Y86.481 E2.57551
G1 X88.029 Y84.469 E2.74009
G1 X87.373 Y84.469 E2.77800
G1 X89.386 Y86.481 E2.94258
G1 X88.730 Y86.481 E2.98049
G1 X86.717 Y84.469 E3.14507
G1 X86.062 Y84.469 E3.18297
G1 X88.075 Y86.481 E3.34756
G1 X87.419 Y86.481 E3.38546
G1 X85.406 Y84.469 E3.55004
G1 X84.751 Y84.469 E3.58795
G1 X86.763 Y86.481 E3.75253
G1 X86.108 Y86.481 E3.79044
G1 X84.095 Y84.469 E3.95502
G1 X83.440 Y84.469 E3.99292
G1 X85.452 Y86.481 E4.15751
G1 X84.797 Y86.481 E4.19541
G1 X82.784 Y84.469 E4.35999
G1 X82.128 Y84.469 E4.39790
G1 X84.141 Y86.481 E4.56248
G1 X83.486 Y86.481 E4.60039
G1 X81.473 Y84.469 E4.76497
G1 X80.817 Y84.469 E4.80288
G1 X82.830 Y86.481 E4.96746
G1 X82.174 Y86.481 E5.00536
G1 X80.162 Y84.469 E5.16995
G1 X79.506 Y84.469 E5.20785
G1 X81.519 Y86.481 E5.37243
G1 X80.863 Y86.481 E5.41034
G1 X78.850 Y84.469 E5.57492
G1 X78.323 Y84.597 E5.60631
G1 X80.208 Y86.481 E5.76043
G1 X79.552 Y86.481 E5.79833
G1 X77.842 Y84.772 E5.93815
G1 X77.361 Y84.946 E5.96772
G1 X78.896 Y86.481 E6.09323
G1 X78.241 Y86.481 E6.13114
G1 X76.881 Y85.121 E6.24234
G1 X76.259 Y85.155 E6.27837
G1 X77.585 Y86.481 E6.38684
G1 X76.930 Y86.481 E6.42474
G1 X75.603 Y85.155 E6.53322
G1 X74.947 Y85.155 E6.57112
G1 X76.274 Y86.481 E6.67960
G1 X75.502 Y86.365 E6.72474
G1 X73.932 Y84.795 E6.85308
G1 X72.430 Y85.260 F15000.000
G1 X70.740 Y83.570 F960.000 E6.99126
M104 S185 ; set temperature
G1 F3600.000 E4.79126
G92 E0
G1 Z0.550 F15000.000
G1 X70.268 Y84.075
G1 X70.200 Y83.941 F3600.000 E2.20000
G1 X69.300 Y82.177 F1200.000 E2.26176
G1 X68.956 Y80.000 E2.33048
G1 X69.300 Y77.823 E2.39920
G1 X70.301 Y75.859 E2.46792
G1 X71.859 Y74.301 E2.53665
G1 X73.823 Y73.300 E2.60537
G1 X76.035 Y72.950 E2.67521
G1 X91.050 Y72.950 E3.14339
G1 X91.050 Y76.100 E3.24161
G1 X78.487 Y76.100 E3.63334
G1 X78.328 Y75.967 E3.63979
G1 X76.809 Y75.414 E3.69022
G1 X75.191 Y75.414 E3.74065
G1 X73.672 Y75.967 E3.79108
G1 X72.433 Y77.007 E3.84152
G1 X71.624 Y78.407 E3.89195
G1 X71.343 Y80.000 E3.94238
G1 X71.624 Y81.593 E3.99281
G1 X72.433 Y82.993 E4.04324
G1 X73.672 Y84.033 E4.09367
G1 X75.191 Y84.586 E4.14410
G1 X76.809 Y84.586 E4.19453
G1 X78.328 Y84.033 E4.24496
G1 X78.487 Y83.900 E4.25142
G1 X91.050 Y83.900 E4.64315
G1 X91.050 Y87.050 E4.74137
G1 X76.035 Y87.050 E5.20954
G1 X73.823 Y86.700 E5.27938
G1 X71.859 Y85.699 E5.34811
G1 X70.451 Y84.290 E5.41023
G1 X70.268 Y84.075
G1 X70.000 Y84.211 F15000.000
G1 X69.012 Y82.271 F1200.000 E5.47815
G1 X68.652 Y80.000 E5.54983
G1 X69.012 Y77.729 E5.62152
G1 X70.055 Y75.681 E5.69321
G1 X71.681 Y74.055 E5.76489
G1 X73.729 Y73.012 E5.83658
G1 X76.012 Y72.650 E5.90864
G1 X91.350 Y72.650 E6.38690
G1 X91.350 Y76.400 E6.50383
G1 X78.378 Y76.400 E6.90832
G1 X78.176 Y76.231 E6.91653
G1 X76.756 Y75.714 E6.96366
G1 X75.244 Y75.714 E7.01080
G1 X73.824 Y76.231 E7.05793
G1 X72.666 Y77.202 E7.10506
G1 X71.910 Y78.511 E7.15219
G1 X71.648 Y80.000 E7.19932
G1 X71.910 Y81.489 E7.24646
G1 X72.666 Y82.798 E7.29359
G1 X73.824 Y83.769 E7.34072
G1 X75.244 Y84.286 E7.38785
G1 X76.756 Y84.286 E7.43498
G1 X78.176 Y83.769 E7.48212
G1 X78.378 Y83.600 E7.49032
G1 X91.350 Y83.600 E7.89481
G1 X91.350 Y87.350 E8.01174
G1 X76.012 Y87.350 E8.49001
G1 X73.729 Y86.988 E8.56207
G1 X71.681 Y85.945 E8.63376
G1 X70.295 Y84.547 E8.69514
G1 X70.000 Y84.211
G1 X70.451 Y84.290 F3600.000 E6.49514
G92 E0
G1 X72.267 Y83.012 F15000.000
G1 X72.161 Y83.118 F3600.000 E2.20000
G1 X70.824 Y84.455 F1920.000 E2.26714
G1 X70.583 Y84.214 E2.27926
G1 X72.091 Y82.706 E2.35498
G1 X71.914 Y82.400 E2.36753
G1 X70.373 Y83.941 E2.44490
G1 X70.210 Y83.621 E2.45765
G1 X71.737 Y82.093 E2.53434
G1 X71.560 Y81.787 E2.54689
G1 X70.047 Y83.301 E2.62288
G1 X69.884 Y82.981 E2.63563
G1 X71.420 Y81.444 E2.71278
G1 X71.348 Y81.033 E2.72759
G1 X69.721 Y82.661 E2.80929
G1 X69.557 Y82.341 E2.82204
G1 X71.275 Y80.623 E2.90829
G1 X71.203 Y80.212 E2.92309
G1 X69.446 Y81.969 E3.01130
G1 X69.380 Y81.552 E3.02629
G1 X71.169 Y79.763 E3.11613
G1 X71.273 Y79.176 E3.13727
G1 X69.314 Y81.135 E3.23562
G1 X69.248 Y80.718 E3.25061
G1 X71.376 Y78.590 E3.35746
G1 X71.662 Y77.821 E3.38656
G1 X69.182 Y80.301 E3.51106
G1 X69.200 Y79.800 E3.52887
G1 X75.800 Y73.200 E3.86022
G1 X76.341 Y73.142 E3.87955
G1 X73.821 Y75.662 E4.00609
G1 X74.580 Y75.386 E4.03478
G1 X76.824 Y73.142 E4.14744
G1 X77.307 Y73.142 E4.16459
G1 X75.227 Y75.222 E4.26902
G1 X75.710 Y75.222 E4.28617
G1 X77.790 Y73.142 E4.39060
G1 X78.273 Y73.142 E4.40775
G1 X76.193 Y75.222 E4.51218
G1 X76.676 Y75.222 E4.52933
G1 X78.756 Y73.142 E4.63376
G1 X79.239 Y73.142 E4.65091
G1 X77.051 Y75.330 E4.76077
G1 X77.405 Y75.459 E4.77415
G1 X79.722 Y73.142 E4.89049
G1 X80.205 Y73.142 E4.90764
G1 X77.759 Y75.588 E5.03045
G1 X78.114 Y75.717 E5.04383
G1 X80.688 Y73.142 E5.17311
G1 X81.171 Y73.142 E5.19026
G1 X78.443 Y75.870 E5.32724
G1 X78.888 Y75.908 E5.34311
G1 X81.655 Y73.142 E5.48199
G1 X82.138 Y73.142 E5.49914
G1 X79.371 Y75.908 E5.63802
G1 X79.854 Y75.908 E5.65517
G1 X82.621 Y73.142 E5.79405
G1 X83.104 Y73.142 E5.81120
G1 X80.338 Y75.908 E5.95008
G1 X80.821 Y75.908 E5.96723
G1 X83.587 Y73.142 E6.10612
G1 X84.070 Y73.142 E6.12327
G1 X81.304 Y75.908 E6.26215
G1 X81.787 Y75.908 E6.27930
G1 X84.553 Y73.142 E6.41818
G1 X85.036 Y73.142 E6.43533
G1 X82.270 Y75.908 E6.57421
G1 X82.753 Y75.908 E6.59136
G1 X85.519 Y73.142 E6.73024
G1 X86.002 Y73.142 E6.74739
G1 X83.236 Y75.908 E6.88627
G1 X83.719 Y75.908 E6.90342
G1 X86.485 Y73.142 E7.04231
G1 X86.968 Y73.142 E7.05946
G1 X84.202 Y75.908 E7.19834
G1 X84.685 Y75.908 E7.21549
G1 X87.451 Y73.142 E7.35437
G1 X87.934 Y73.142 E7.37152
G1 X85.168 Y75.908 E7.51040
G1 X85.651 Y75.908 E7.52755
G1 X88.417 Y73.142 E7.66643
G1 X88.900 Y73.142 E7.68358
G1 X86.134 Y75.908 E7.82246
G1 X86.617 Y75.908 E7.83961
G1 X89.383 Y73.142 E7.97850
G1 X89.866 Y73.142 E7.99565
G1 X87.100 Y75.908 E8.13453
G1 X87.583 Y75.908 E8.15168
G1 X90.350 Y73.142 E8.29056
G1 X90.833 Y73.142 E8.30771
G1 X88.066 Y75.908 E8.44659
G1 X88.549 Y75.908 E8.46374
G1 X90.858 Y73.599 E8.57965
G1 X90.858 Y74.083 E8.59680
G1 X89.033 Y75.908 E8.68845
G1 X89.516 Y75.908 E8.70560
G1 X90.858 Y74.566 E8.77301
G1 X90.858 Y75.049 E8.79016
G1 X89.999 Y75.908 E8.83331
G1 X90.482 Y75.908 E8.85046
G1 X90.858 Y75.532 E8.86935
G1 F3600.000 E6.66935
G92 E0
G1 X90.858 Y86.642 F15000.000
G1 X90.752 Y86.748 F3600.000 E2.20000
G1 X90.642 Y86.858 F1920.000 E2.20553
G1 X90.159 Y86.858 E2.22267
G1 X90.858 Y86.159 E2.25778
G1 X90.858 Y85.676 E2.27493
G1 X89.676 Y86.858 E2.33428
G1 X89.193 Y86.858 E2.35143
G1 X90.858 Y85.193 E2.43504
G1 X90.858 Y84.710 E2.45219
G1 X88.710 Y86.858 E2.56006
G1 X88.227 Y86.858 E2.57721
G1 X90.858 Y84.227 E2.70932
G1 X90.510 Y84.092 E2.72258
G1 X87.744 Y86.858 E2.86146
G1 X87.261 Y86.858 E2.87861
G1 X90.027 Y84.092 E3.01749
G1 X89.544 Y84.092 E3.03464
G1 X86.778 Y86.858 E3.17352
G1 X86.294 Y86.858 E3.19067
G1 X89.061 Y84.092 E3.32956
G1 X88.578 Y84.092 E3.34671
G1 X85.811 Y86.858 E3.48559
G1 X85.328 Y86.858 E3.50274
G1 X88.095 Y84.092 E3.64162
G1 X87.611 Y84.092 E3.65877
G1 X84.845 Y86.858 E3.79765
G1 X84.362 Y86.858 E3.81480
G1 X87.128 Y84.092 E3.95368
G1 X86.645 Y84.092 E3.97083
G1 X83.879 Y86.858 E4.10971
G1 X83.396 Y86.858 E4.12686
G1 X86.162 Y84.092 E4.26575
G1 X85.679 Y84.092 E4.28290
G1 X82.913 Y86.858 E4.42178
G1 X82.430 Y86.858 E4.43893
G1 X85.196 Y84.092 E4.57781
G1 X84.713 Y84.092 E4.59496
G1 X81.947 Y86.858 E4.73384
G1 X81.464 Y86.858 E4.75099
G1 X84.230 Y84.092 E4.88987
G1 X83.747 Y84.092 E4.90702
G1 X80.981 Y86.858 E5.04590
G1 X80.498 Y86.858 E5.06305
G1 X83.264 Y84.092 E5.20194
G1 X82.781 Y84.092 E5.21909
G1 X80.015 Y86.858 E5.35797
G1 X79.532 Y86.858 E5.37512
G1 X82.298 Y84.092 E5.51400
G1 X81.815 Y84.092 E5.53115
G1 X79.049 Y86.858 E5.67003
G1 X78.566 Y86.858 E5.68718
G1 X81.332 Y84.092 E5.82606
G1 X80.849 Y84.092 E5.84321
G1 X78.083 Y86.858 E5.98209
G1 X77.599 Y86.858 E5.99924
G1 X80.366 Y84.092 E6.13813
G1 X79.883 Y84.092 E6.15528
G1 X77.116 Y86.858 E6.29416
G1 X76.633 Y86.858 E6.31131
G1 X79.400 Y84.092 E6.45019
G1 X78.916 Y84.092 E6.46734
G1 X76.150 Y86.858 E6.60622
G1 X75.706 Y86.819 E6.62205
G1 X78.192 Y84.333 E6.74688
G1 X77.433 Y84.609 E6.77557
G1 X75.289 Y86.753 E6.88321
G1 X74.872 Y86.687 E6.89819
G1 X76.781 Y84.778 E6.99404
G1 X76.298 Y84.778 E7.01119
G1 X74.455 Y86.621 E7.10373
G1 X74.038 Y86.555 E7.11872
G1 X75.815 Y84.778 E7.20793
G1 X75.332 Y84.778 E7.22508
G1 X73.665 Y86.445 E7.30879
G1 X73.345 Y86.282 E7.32154
G1 X74.955 Y84.672 E7.40238
G1 X74.601 Y84.543 E7.41576
G1 X73.025 Y86.119 E7.49489
G1 X72.705 Y85.956 E7.50765
G1 X74.247 Y84.414 E7.58506
G1 X73.893 Y84.285 E7.59844
G1 X72.385 Y85.793 E7.67414
G1 X72.065 Y85.630 E7.68689
G1 X73.561 Y84.133 E7.76203
G1 X73.299 Y83.913 E7.77421
G1 X71.790 Y85.422 E7.84994
G1 X71.549 Y85.180 E7.86207
G1 X73.036 Y83.693 E7.93674
G1 X72.773 Y83.472 E7.94891
G1 X71.307 Y84.938 E8.02253
G1 X71.066 Y84.697 E8.03465
G1 X72.511 Y83.252 E8.10721
G1 F3600.000 E5.90721
G92 E0
G1 X70.439 Y76.146 F15000.000
G1 X70.545 Y76.040 F3600.000 E2.20000
