; generated by Slic3r 0.9.10-dev on 2013-05-17 at 13:32:12

; H-PLA-03-025-1

; layer_height = 0.25
; perimeters = 3
; top_solid_layers = 4
; bottom_solid_layers = 3
; fill_density = 0.2
; perimeter_speed = 20
; infill_speed = 32
; travel_speed = 250
; nozzle_diameter = 0.3
; filament_diameter = 1.75
; extrusion_multiplier = 1.0
; perimeters extrusion width = 0.32mm
; infill extrusion width = 0.32mm
; solid infill extrusion width = 0.32mm
; top infill extrusion width = 0.32mm
; first layer extrusion width = 0.50mm

G21 ; set units to millimeters
M107
M190 S57 ; wait for bed temperature to be reached
M104 S200 ; set temperature
G28 X0 Y0
G1 X80 Y80 F12000
G28 Z0
G1 Z0.25 F200
G1 X15 Y20 F12000
M109 S200 ; wait for temperature to be reached
G90 ; use absolute coordinates
G92 E0
M82 ; use absolute distances for extrusion
G1 F2220.000 E-1.75000
G92 E0
G1 Z0.300 F15000.000
G1 X59.890 Y54.430
G1 F2220.000 E1.75000
G1 X60.870 Y53.630 F600.000 E1.82212
G1 X61.990 Y53.030 E1.89456
G1 X63.200 Y52.670 E1.96653
G1 X64.460 Y52.540 E2.03874
G1 X95.530 Y52.540 E3.81002
G1 X96.790 Y52.670 E3.88224
G1 X98.000 Y53.030 E3.95421
G1 X99.110 Y53.630 E4.02614
G1 X100.090 Y54.430 E4.09826
G1 X105.560 Y59.890 E4.53887
G1 X106.370 Y60.870 E4.61135
G1 X106.960 Y61.990 E4.68352
G1 X107.330 Y63.200 E4.75566
G1 X107.460 Y64.460 E4.82787
G1 X107.460 Y95.530 E6.59915
G1 X107.330 Y96.790 E6.67137
G1 X106.970 Y98.000 E6.74334
G1 X106.370 Y99.120 E6.81577
G1 X105.570 Y100.100 E6.88789
G1 X100.100 Y105.570 E7.32890
G1 X99.120 Y106.370 E7.40103
G1 X98.000 Y106.970 E7.47346
G1 X96.790 Y107.330 E7.54543
G1 X95.530 Y107.460 E7.61764
G1 X64.460 Y107.460 E9.38893
G1 X63.200 Y107.330 E9.46114
G1 X61.990 Y106.960 E9.53328
G1 X60.870 Y106.370 E9.60545
G1 X59.890 Y105.560 E9.67793
G1 X54.430 Y100.090 E10.11854
G1 X53.630 Y99.110 E10.19066
G1 X53.030 Y98.000 E10.26259
G1 X52.670 Y96.790 E10.33456
G1 X52.540 Y95.530 E10.40677
G1 X52.540 Y64.460 E12.17806
G1 X52.670 Y63.200 E12.25027
G1 X53.030 Y61.990 E12.32224
G1 X53.630 Y60.870 E12.39468
G1 X54.430 Y59.890 E12.46680
G1 X59.842 Y54.478 E12.90309
G1 F2220.000 E11.15309
G92 E0
G1 X63.902 Y62.269 F15000.000
G1 F2220.000 E1.75000
G1 X65.098 Y62.269 F600.000 E1.81816
G1 X66.133 Y62.867 E1.88633
G1 X66.731 Y63.902 E1.95449
G1 X66.731 Y65.098 E2.02265
G1 X66.133 Y66.133 E2.09082
G1 X65.098 Y66.731 E2.15898
G1 X63.902 Y66.731 E2.22714
G1 X62.867 Y66.133 E2.29531
G1 X62.269 Y65.098 E2.36347
G1 X62.269 Y63.902 E2.43163
G1 X62.867 Y62.867 E2.49980
G1 X63.843 Y62.303 E2.56406
G1 X64.025 Y62.726 F15000.000
G1 X64.975 Y62.726 F600.000 E2.61825
G1 X65.799 Y63.201 E2.67245
G1 X66.274 Y64.025 E2.72665
G1 X66.274 Y64.975 E2.78085
G1 X65.799 Y65.799 E2.83505
G1 X64.975 Y66.274 E2.88925
G1 X64.025 Y66.274 E2.94345
G1 X63.201 Y65.799 E2.99765
G1 X62.726 Y64.975 E3.05185
G1 X62.726 Y64.025 E3.10605
G1 X63.201 Y63.201 E3.16025
G1 X63.965 Y62.760 E3.21054
G1 X64.318 Y63.076 F15000.000
G1 F2220.000 E1.46054
G92 E0
G1 X93.269 Y63.902 F15000.000
G1 F2220.000 E1.75000
G1 X93.867 Y62.867 F600.000 E1.81817
G1 X94.902 Y62.269 E1.88633
G1 X96.098 Y62.269 E1.95449
G1 X97.133 Y62.867 E2.02266
G1 X97.731 Y63.902 E2.09082
G1 X97.731 Y65.098 E2.15898
G1 X97.133 Y66.133 E2.22715
G1 X96.098 Y66.731 E2.29531
G1 X94.902 Y66.731 E2.36347
G1 X93.867 Y66.133 E2.43164
G1 X93.269 Y65.098 E2.49980
G1 X93.269 Y63.971 E2.56406
G1 X93.726 Y64.025 F15000.000
G1 X94.201 Y63.201 F600.000 E2.61826
G1 X95.025 Y62.726 E2.67246
G1 X95.975 Y62.726 E2.72665
G1 X96.799 Y63.201 E2.78085
G1 X97.274 Y64.025 E2.83505
G1 X97.274 Y64.975 E2.88925
G1 X96.799 Y65.799 E2.94345
G1 X95.975 Y66.274 E2.99765
G1 X95.025 Y66.274 E3.05185
G1 X94.201 Y65.799 E3.10605
G1 X93.726 Y64.975 E3.16025
G1 X93.726 Y64.093 E3.21054
G1 X94.176 Y63.945 F15000.000
G1 F2220.000 E1.46054
G92 E0
G1 X88.464 Y70.600 F15000.000
G1 F2220.000 E1.75000
G1 X90.233 Y72.565 F600.000 E1.90075
G1 X91.555 Y74.855 E2.05151
G1 X92.373 Y77.370 E2.20226
G1 X92.649 Y80.000 E2.35302
G1 X92.373 Y82.630 E2.50377
G1 X91.555 Y85.145 E2.65452
G1 X90.233 Y87.435 E2.80528
G1 X88.464 Y89.400 E2.95603
G1 X86.324 Y90.954 E3.10678
G1 X83.909 Y92.030 E3.25754
G1 X81.322 Y92.580 E3.40829
G1 X78.678 Y92.580 E3.55904
G1 X76.091 Y92.030 E3.70980
G1 X73.676 Y90.954 E3.86055
G1 X71.536 Y89.400 E4.01130
G1 X69.767 Y87.435 E4.16206
G1 X68.445 Y85.145 E4.31281
G1 X67.627 Y82.630 E4.46357
G1 X67.351 Y80.000 E4.61432
G1 X67.627 Y77.370 E4.76507
G1 X68.445 Y74.855 E4.91582
G1 X69.767 Y72.565 E5.06658
G1 X71.536 Y70.600 E5.21733
G1 X73.676 Y69.046 E5.36809
G1 X76.091 Y67.970 E5.51884
G1 X78.678 Y67.420 E5.66959
G1 X81.322 Y67.420 E5.82035
G1 X83.909 Y67.970 E5.97110
G1 X86.324 Y69.046 E6.12185
G1 X88.408 Y70.560 E6.26870
G1 X88.156 Y70.942 F15000.000
G1 X89.861 Y72.835 F600.000 E6.41397
G1 X91.136 Y75.042 E6.55925
G1 X91.923 Y77.466 E6.70453
G1 X92.189 Y80.000 E6.84980
G1 X91.923 Y82.534 E6.99508
G1 X91.136 Y84.958 E7.14035
G1 X89.861 Y87.165 E7.28563
G1 X88.156 Y89.058 E7.43091
G1 X86.095 Y90.556 E7.57618
G1 X83.767 Y91.593 E7.72146
G1 X81.274 Y92.123 E7.86673
G1 X78.726 Y92.123 E8.01201
G1 X76.233 Y91.593 E8.15729
G1 X73.905 Y90.556 E8.30256
G1 X71.844 Y89.058 E8.44784
G1 X70.139 Y87.165 E8.59311
G1 X68.864 Y84.958 E8.73839
G1 X68.077 Y82.534 E8.88367
G1 X67.811 Y80.000 E9.02894
G1 X68.077 Y77.466 E9.17422
G1 X68.864 Y75.042 E9.31949
G1 X70.139 Y72.835 E9.46477
G1 X71.844 Y70.942 E9.61005
G1 X73.905 Y69.444 E9.75532
G1 X76.233 Y68.407 E9.90060
G1 X78.726 Y67.877 E10.04587
G1 X81.274 Y67.877 E10.19115
G1 X83.767 Y68.407 E10.33643
G1 X86.095 Y69.444 E10.48170
G1 X88.101 Y70.901 E10.62307
G1 X87.849 Y71.283 F15000.000
G1 X89.490 Y73.105 F600.000 E10.76287
G1 X90.716 Y75.229 E10.90267
G1 X91.473 Y77.561 E11.04246
G1 X91.730 Y80.000 E11.18226
G1 X91.473 Y82.439 E11.32206
G1 X90.716 Y84.771 E11.46186
G1 X89.490 Y86.895 E11.60166
G1 X87.849 Y88.717 E11.74146
G1 X85.865 Y90.158 E11.88125
G1 X83.625 Y91.156 E12.02105
G1 X81.226 Y91.666 E12.16085
G1 X78.774 Y91.666 E12.30065
G1 X76.375 Y91.156 E12.44045
G1 X74.135 Y90.158 E12.58024
G1 X72.151 Y88.717 E12.72004
G1 X70.510 Y86.895 E12.85984
G1 X69.284 Y84.771 E12.99964
G1 X68.527 Y82.439 E13.13944
G1 X68.270 Y80.000 E13.27924
G1 X68.527 Y77.561 E13.41904
G1 X69.284 Y75.229 E13.55883
G1 X70.510 Y73.105 E13.69863
G1 X72.151 Y71.283 E13.83843
G1 X74.135 Y69.842 E13.97823
G1 X76.375 Y68.844 E14.11803
G1 X78.774 Y68.334 E14.25783
G1 X81.226 Y68.334 E14.39762
G1 X83.625 Y68.844 E14.53742
G1 X85.865 Y69.842 E14.67722
G1 X87.793 Y71.243 E14.81311
G1 X87.738 Y71.727 F15000.000
G1 F2220.000 E13.06311
G92 E0
G1 X66.133 Y93.867 F15000.000
G1 F2220.000 E1.75000
G1 X66.731 Y94.902 F600.000 E1.81816
G1 X66.731 Y96.098 E1.88633
G1 X66.133 Y97.133 E1.95449
G1 X65.098 Y97.731 E2.02266
G1 X63.902 Y97.731 E2.09082
G1 X62.867 Y97.133 E2.15898
G1 X62.269 Y96.098 E2.22715
G1 X62.269 Y94.902 E2.29531
G1 X62.867 Y93.867 E2.36347
G1 X63.902 Y93.269 E2.43164
G1 X65.098 Y93.269 E2.49980
G1 X66.074 Y93.832 E2.56406
G1 X65.799 Y94.201 F15000.000
G1 X66.274 Y95.025 F600.000 E2.61826
G1 X66.274 Y95.975 E2.67245
G1 X65.799 Y96.799 E2.72665
G1 X64.975 Y97.274 E2.78085
G1 X64.025 Y97.274 E2.83505
G1 X63.201 Y96.799 E2.88925
G1 X62.726 Y95.975 E2.94345
G1 X62.726 Y95.025 E2.99765
G1 X63.201 Y94.201 E3.05185
G1 X64.025 Y93.726 E3.10605
G1 X64.975 Y93.726 E3.16025
G1 X65.739 Y94.167 E3.21054
G1 X65.642 Y94.631 F15000.000
G1 F2220.000 E1.46054
G92 E0
G1 X93.269 Y94.902 F15000.000
G1 F2220.000 E1.75000
G1 X93.867 Y93.867 F600.000 E1.81816
G1 X94.902 Y93.269 E1.88633
G1 X96.098 Y93.269 E1.95449
G1 X97.133 Y93.867 E2.02266
G1 X97.731 Y94.902 E2.09082
G1 X97.731 Y96.098 E2.15898
G1 X97.133 Y97.133 E2.22715
G1 X96.098 Y97.731 E2.29531
G1 X94.902 Y97.731 E2.36347
G1 X93.867 Y97.133 E2.43164
G1 X93.269 Y96.098 E2.49980
G1 X93.269 Y94.971 E2.56406
G1 X93.726 Y95.025 F15000.000
G1 X94.201 Y94.201 F600.000 E2.61826
G1 X95.025 Y93.726 E2.67246
G1 X95.975 Y93.726 E2.72665
G1 X96.799 Y94.201 E2.78085
G1 X97.274 Y95.025 E2.83506
G1 X97.274 Y95.975 E2.88925
G1 X96.799 Y96.799 E2.94345
G1 X95.975 Y97.274 E2.99765
G1 X95.025 Y97.274 E3.05185
G1 X94.201 Y96.799 E3.10605
G1 X93.726 Y95.975 E3.16025
G1 X93.726 Y95.093 E3.21054
G1 X94.176 Y94.945 F15000.000
G1 X93.348 Y93.851
G1 X92.812 Y94.780 F600.000 E3.27167
G1 X92.812 Y96.220 E3.35379
G1 X93.532 Y97.468 E3.43592
G1 X94.780 Y98.188 E3.51805
G1 X96.731 Y98.188 E3.62931
G1 X95.062 Y99.857 E3.76388
G1 X64.938 Y99.857 E5.48125
G1 X63.269 Y98.188 E5.61582
G1 X65.220 Y98.188 E5.72708
G1 X66.468 Y97.468 E5.80921
G1 X67.188 Y96.220 E5.89134
G1 X67.188 Y94.780 E5.97347
G1 X66.468 Y93.532 E6.05559
G1 X65.220 Y92.812 E6.13772
G1 X63.780 Y92.812 E6.21985
G1 X62.532 Y93.532 E6.30198
G1 X61.812 Y94.780 E6.38411
G1 X61.812 Y96.731 E6.49537
G1 X60.143 Y95.062 E6.62993
G1 X60.143 Y64.938 E8.34731
G1 X61.812 Y63.269 E8.48188
G1 X61.812 Y65.220 E8.59313
G1 X62.532 Y66.468 E8.67526
G1 X63.780 Y67.188 E8.75739
G1 X65.220 Y67.188 E8.83952
G1 X66.468 Y66.468 E8.92165
G1 X67.188 Y65.220 E9.00378
G1 X67.188 Y63.780 E9.08590
G1 X66.468 Y62.532 E9.16803
G1 X65.220 Y61.812 E9.25016
G1 X63.269 Y61.812 E9.36142
G1 X64.938 Y60.143 E9.49599
G1 X95.062 Y60.143 E11.21336
G1 X96.731 Y61.812 E11.34793
G1 X94.780 Y61.812 E11.45919
G1 X93.532 Y62.532 E11.54132
G1 X92.812 Y63.780 E11.62345
G1 X92.812 Y65.220 E11.70557
G1 X93.532 Y66.468 E11.78770
G1 X94.780 Y67.188 E11.86983
G1 X96.220 Y67.188 E11.95196
G1 X97.468 Y66.468 E12.03409
G1 X98.188 Y65.220 E12.11622
G1 X98.188 Y63.269 E12.22748
G1 X99.857 Y64.938 E12.36204
G1 X99.857 Y95.062 E14.07942
G1 X98.188 Y96.731 E14.21399
G1 X98.188 Y94.780 E14.32524
G1 X97.468 Y93.532 E14.40738
G1 X96.220 Y92.812 E14.48950
G1 X94.780 Y92.812 E14.57163
G1 X93.532 Y93.532 E14.65376
G1 X93.382 Y93.792 E14.67085
G1 F2220.000 E12.92085
G92 E0
G1 X95.252 Y100.314 F15000.000
G1 F2220.000 E1.75000
G1 X64.748 Y100.314 F600.000 E3.48896
G1 X59.686 Y95.252 E3.89715
G1 X59.686 Y64.748 E5.63611
G1 X64.748 Y59.686 E6.04430
G1 X95.252 Y59.686 E7.78326
G1 X100.314 Y64.748 E8.19144
G1 X100.314 Y95.252 E9.93041
G1 X95.300 Y100.266 E10.33468
G1 X95.441 Y100.771 F15000.000
G1 X64.559 Y100.771 F600.000 E12.09523
G1 X59.229 Y95.441 E12.52501
G1 X59.229 Y64.559 E14.28555
G1 X64.559 Y59.229 E14.71533
G1 X95.441 Y59.229 E16.47588
G1 X100.771 Y64.559 E16.90565
G1 X100.771 Y95.441 E18.66620
G1 X95.489 Y100.723 E19.09207
G1 X95.118 Y100.448 F15000.000
G1 F2220.000 E17.34207
G92 E0
G1 X94.925 Y60.474 F15000.000
G1 F2220.000 E1.75000
G1 X95.931 Y61.480 F960.000 E1.83156
G1 X94.691 Y61.480 E1.90263
G1 X93.289 Y62.289 E1.99536
G1 X92.480 Y63.691 E2.08809
G1 X92.480 Y65.309 E2.18081
G1 X93.289 Y66.710 E2.27354
G1 X94.691 Y67.520 E2.36627
G1 X96.309 Y67.520 E2.45899
G1 X97.710 Y66.710 E2.55172
G1 X98.520 Y65.309 E2.64445
G1 X98.520 Y64.069 E2.71553
G1 X99.526 Y65.075 E2.79708
G1 X99.526 Y94.925 E4.50758
G1 X98.520 Y95.931 E4.58913
G1 X98.520 Y94.691 E4.66021
G1 X97.710 Y93.289 E4.75294
G1 X96.309 Y92.480 E4.84567
G1 X94.691 Y92.480 E4.93839
G1 X93.289 Y93.290 E5.03112
G1 X92.480 Y94.691 E5.12385
G1 X92.480 Y96.309 E5.21657
G1 X93.289 Y97.710 E5.30930
G1 X94.691 Y98.520 E5.40203
G1 X95.931 Y98.520 E5.47310
G1 X94.925 Y99.526 E5.55466
G1 X65.075 Y99.526 E7.26515
G1 X64.069 Y98.520 E7.34671
G1 X65.309 Y98.520 E7.41778
G1 X66.710 Y97.710 E7.51051
G1 X67.520 Y96.309 E7.60324
G1 X67.520 Y94.691 E7.69596
G1 X66.710 Y93.289 E7.78869
G1 X65.309 Y92.480 E7.88142
G1 X63.691 Y92.480 E7.97414
G1 X62.290 Y93.289 E8.06687
G1 X61.480 Y94.691 E8.15960
G1 X61.480 Y95.931 E8.23068
G1 X60.474 Y94.925 E8.31223
G1 X60.474 Y65.075 E10.02273
G1 X61.480 Y64.069 E10.10428
G1 X61.480 Y65.309 E10.17536
G1 X62.290 Y66.710 E10.26809
G1 X63.691 Y67.520 E10.36082
G1 X65.309 Y67.520 E10.45354
G1 X66.710 Y66.711 E10.54627
G1 X67.520 Y65.309 E10.63900
G1 X67.520 Y63.691 E10.73172
G1 X66.710 Y62.290 E10.82445
G1 X65.309 Y61.480 E10.91718
G1 X64.069 Y61.480 E10.98826
G1 X65.075 Y60.474 E11.06981
G1 X94.856 Y60.474 E12.77635
G1 X94.435 Y61.098 F15000.000
G1 X92.953 Y61.953 F960.000 E12.87440
G1 X92.021 Y63.568 E12.98123
G1 X92.021 Y65.432 E13.08806
G1 X92.953 Y67.047 E13.19490
G1 X94.568 Y67.979 E13.30174
G1 X96.432 Y67.979 E13.40857
G1 X98.047 Y67.047 E13.51541
G1 X98.902 Y65.565 E13.61345
G1 X99.067 Y65.609 E13.62319
G1 X99.067 Y94.391 E15.27248
G1 X98.902 Y94.435 E15.28223
G1 X98.047 Y92.953 E15.38027
G1 X96.432 Y92.021 E15.48711
G1 X94.568 Y92.021 E15.59393
G1 X92.953 Y92.953 E15.70078
G1 X92.021 Y94.568 E15.80761
G1 X92.021 Y96.432 E15.91444
G1 X92.953 Y98.047 E16.02128
G1 X94.435 Y98.902 E16.11932
G1 X94.391 Y99.067 E16.12907
G1 X65.609 Y99.067 E17.77835
G1 X65.565 Y98.902 E17.78810
G1 X67.047 Y98.047 E17.88614
G1 X67.979 Y96.432 E17.99298
G1 X67.979 Y94.568 E18.09981
G1 X67.047 Y92.953 E18.20665
G1 X65.432 Y92.021 E18.31348
G1 X63.568 Y92.021 E18.42031
G1 X61.953 Y92.953 E18.52715
G1 X61.098 Y94.435 E18.62519
G1 X60.933 Y94.391 E18.63494
G1 X60.933 Y65.609 E20.28423
G1 X61.098 Y65.565 E20.29397
G1 X61.953 Y67.047 E20.39201
G1 X63.568 Y67.979 E20.49885
G1 X65.432 Y67.979 E20.60568
G1 X67.047 Y67.047 E20.71252
G1 X67.979 Y65.432 E20.81936
G1 X67.979 Y63.568 E20.92619
G1 X67.047 Y61.953 E21.03303
G1 X65.565 Y61.098 E21.13107
G1 X65.609 Y60.933 E21.14081
G1 X94.391 Y60.933 E22.79010
G1 X94.417 Y61.031 E22.79589
G1 X92.746 Y61.393 F15000.000
G1 X91.562 Y63.445 F960.000 E22.93166
G1 X91.562 Y65.555 E23.05259
G1 X92.617 Y67.383 E23.17354
G1 X94.445 Y68.438 E23.29449
G1 X96.555 Y68.438 E23.41543
G1 X98.607 Y67.254 E23.55119
G1 X98.607 Y92.746 E25.01198
G1 X96.555 Y91.562 E25.14774
G1 X94.445 Y91.562 E25.26867
G1 X92.617 Y92.617 E25.38962
G1 X91.562 Y94.445 E25.51057
G1 X91.562 Y96.555 E25.63151
G1 X92.746 Y98.607 E25.76727
G1 X67.254 Y98.607 E27.22805
G1 X68.438 Y96.555 E27.36382
G1 X68.438 Y94.445 E27.48476
G1 X67.383 Y92.617 E27.60570
G1 X65.555 Y91.562 E27.72665
G1 X63.445 Y91.562 E27.84758
G1 X61.393 Y92.746 E27.98335
G1 X61.393 Y67.254 E29.44413
G1 X63.445 Y68.438 E29.57989
G1 X65.555 Y68.438 E29.70083
G1 X67.383 Y67.383 E29.82178
G1 X68.438 Y65.555 E29.94273
G1 X68.438 Y63.445 E30.06367
G1 X67.254 Y61.393 E30.19943
G1 X92.677 Y61.393 E31.65627
G1 F2220.000 E29.90627
G92 E0
G1 X91.102 Y63.322 F15000.000
G1 F2220.000 E1.75000
G1 X91.102 Y65.678 F960.000 E1.88504
G1 X92.280 Y67.719 E2.02010
G1 X94.322 Y68.898 E2.15516
G1 X96.678 Y68.898 E2.29020
G1 X98.148 Y68.050 E2.38742
G1 X98.148 Y91.950 E3.75701
G1 X96.678 Y91.102 E3.85423
G1 X94.322 Y91.102 E3.98927
G1 X92.280 Y92.281 E4.12433
G1 X91.102 Y94.322 E4.25939
G1 X91.102 Y96.678 E4.39443
G1 X91.950 Y98.148 E4.49165
G1 X68.050 Y98.148 E5.86124
G1 X68.898 Y96.678 E5.95846
G1 X68.898 Y94.322 E6.09350
G1 X67.719 Y92.280 E6.22856
G1 X65.678 Y91.102 E6.36362
G1 X63.322 Y91.102 E6.49866
G1 X61.852 Y91.950 E6.59588
G1 X61.852 Y68.050 E7.96547
G1 X63.322 Y68.898 E8.06269
G1 X65.678 Y68.898 E8.19773
G1 X67.719 Y67.720 E8.33279
G1 X68.898 Y65.678 E8.46784
G1 X68.898 Y63.322 E8.60289
G1 X68.050 Y61.852 E8.70011
G1 X91.950 Y61.852 E10.06970
G1 X91.137 Y63.262 E10.16297
G1 X91.155 Y62.312 F15000.000
G1 X90.643 Y63.199 F960.000 E10.22164
G1 X90.643 Y65.801 E10.37079
G1 X91.944 Y68.056 E10.51996
G1 X94.199 Y69.357 E10.66913
G1 X96.801 Y69.357 E10.81828
G1 X97.688 Y68.845 E10.87695
G1 X97.688 Y91.155 E12.15535
G1 X96.801 Y90.643 E12.21402
G1 X94.199 Y90.643 E12.36317
G1 X91.944 Y91.944 E12.51234
G1 X90.643 Y94.199 E12.66151
G1 X90.643 Y96.801 E12.81066
G1 X91.155 Y97.688 E12.86933
G1 X68.845 Y97.688 E14.14772
G1 X69.357 Y96.801 E14.20640
G1 X69.357 Y94.199 E14.35555
G1 X68.056 Y91.944 E14.50472
G1 X65.801 Y90.643 E14.65388
G1 X63.199 Y90.643 E14.80303
G1 X62.312 Y91.155 E14.86171
G1 X62.312 Y68.845 E16.14010
G1 X63.199 Y69.357 E16.19878
G1 X65.801 Y69.357 E16.34793
G1 X68.056 Y68.056 E16.49709
G1 X69.357 Y65.801 E16.64626
G1 X69.357 Y63.199 E16.79542
G1 X68.845 Y62.312 E16.85409
G1 X91.086 Y62.312 E18.12853
G1 X90.183 Y63.075 F15000.000
G1 X90.183 Y65.925 F960.000 E18.29179
G1 X91.608 Y68.392 E18.45507
G1 X94.075 Y69.817 E18.61834
G1 X96.925 Y69.817 E18.78160
G1 X97.229 Y69.641 E18.80173
G1 X97.229 Y90.359 E19.98893
